%
(Header)
(Generated by gcodetools from Inkscape.)
(Using default header. To add your own header create file "header" in the output dir.)
M3
(Header end.)
G21 (All units in mm)

(Start cutting path id: path6142)
(Change tool to Default tool)

G00 Z5.000000
G00 X124.293160 Y194.695150

G01 Z-0.125000 F100.0(Penetrate)
G02 X124.711752 Y195.503435 Z-0.125000 I16.941831 J-8.261255 F400.000000
G02 X124.789100 Y195.598670 Z-0.125000 I0.300164 J-0.164759
G03 X124.810537 Y195.694696 Z-0.125000 I-0.053387 J0.062324
G03 X123.761800 Y197.879318 Z-0.125000 I-45.355331 J-20.428984
G02 X122.656495 Y200.082584 Z-0.125000 I157.949930 J80.617107
G02 X122.639370 Y200.156048 Z-0.125000 I0.149016 J0.073464
G01 X122.676143 Y200.196908 Z-0.125000
G02 X123.374150 Y200.233648 Z-0.125000 I0.698007 J-6.612100
G02 X123.958858 Y199.999188 Z-0.125000 I0.000000 J-0.846318
G02 X124.687830 Y198.978258 Z-0.125000 I-2.318604 J-2.426264
G03 X125.298409 Y197.745135 Z-0.125000 I22.575567 J10.410539
G03 X125.447830 Y197.544568 Z-0.125000 I0.725682 J0.384685
G03 X125.589067 Y197.561727 Z-0.125000 I0.063792 J0.064768
G03 X126.219590 Y198.799958 Z-0.125000 I-7.388029 J4.541728
G02 X126.973860 Y199.989305 Z-0.125000 I3.752818 J-1.546145
G02 X127.527510 Y200.233648 Z-0.125000 I0.553650 J-0.505079
G02 X128.169054 Y200.157982 Z-0.125000 I-0.000000 J-2.757553
G02 X128.244770 Y200.062018 Z-0.125000 I-0.022956 J-0.095964
G02 X128.210156 Y199.898078 Z-0.125000 I-0.405537 J-0.000000
G02 X126.869710 Y196.950850 Z-0.125000 I-138.537981 J61.230833
G02 X125.302168 Y194.286935 Z-0.125000 I-14.861243 J6.951725
G02 X124.693500 Y193.942220 Z-0.125000 I-0.680861 J0.492483
G01 X123.892340 Y193.873120 Z-0.125000
G01 X124.293160 Y194.695150 Z-0.125000
G00 Z5.000000

(Change tool to Default tool)

G00 Z5.000000
G00 X105.313600 Y197.177048

G01 Z-0.125000 F100.0(Penetrate)
G01 X105.313600 Y200.233638 Z-0.125000 F400.000000
G01 X105.950570 Y200.233638 Z-0.125000
G02 X106.494003 Y200.140083 Z-0.125000 I-0.000000 J-1.625094
G02 X106.587550 Y200.007628 Z-0.125000 I-0.046999 J-0.132455
G03 X106.675881 Y199.919297 Z-0.125000 I0.088331 J0.000000
G03 X107.080380 Y200.007628 Z-0.125000 I-0.000000 J0.970336
G02 X108.707124 Y200.251430 Z-0.125000 I1.235370 J-2.693838
G02 X110.174220 Y199.595448 Z-0.125000 I-0.373578 J-2.804065
G02 X110.751246 Y197.138771 Z-0.125000 I-1.390481 J-1.622702
G02 X108.501330 Y195.648760 Z-0.125000 I-2.249916 J0.953680
G02 X107.588964 Y195.720862 Z-0.125000 I-0.000000 J5.808469
G02 X107.080380 Y195.874770 Z-0.125000 I0.307508 J1.933409
G03 X106.787409 Y195.789252 Z-0.125000 I-0.097137 J-0.211820
G03 X106.587550 Y195.110620 Z-0.125000 I1.052239 J-0.678632
G02 X106.362646 Y194.345343 Z-0.125000 I-1.414450 J0.000000
G02 X105.950570 Y194.120460 Z-0.125000 I-0.412076 J0.265103
G01 X105.313600 Y194.120460 Z-0.125000
G01 X105.313600 Y197.177048 Z-0.125000
G00 Z5.000000

(Change tool to Default tool)

G00 Z5.000000
G00 X109.135460 Y196.958720

G01 Z-0.125000 F100.0(Penetrate)
G03 X109.525342 Y197.450440 Z-0.125000 I-1.070295 J1.249059 F400.000000
G03 X109.645040 Y197.941198 Z-0.125000 I-0.946199 J0.490758
G03 X109.214058 Y198.929336 Z-0.125000 I-1.348274 J-0.000000
G03 X108.116290 Y199.360328 Z-0.125000 I-1.097768 J-1.182554
G03 X107.018533 Y198.929341 Z-0.125000 I0.000000 J-1.613527
G03 X106.587550 Y197.941198 Z-0.125000 I0.917297 J-0.988143
G03 X107.018539 Y196.953051 Z-0.125000 I1.348278 J-0.000000
G03 X108.116290 Y196.522070 Z-0.125000 I1.097751 J1.182549
G03 X108.589930 Y196.619259 Z-0.125000 I-0.000000 J1.202712
G03 X109.135460 Y196.958720 Z-0.125000 I-0.836357 J1.952143
G01 X109.135460 Y196.958720 Z-0.125000
G00 Z5.000000

(Change tool to Default tool)

G00 Z5.000000
G00 X85.365323 Y196.088830

G01 Z-0.125000 F100.0(Penetrate)
G02 X84.808817 Y196.605676 Z-0.125000 I1.371302 J2.034557 F400.000000
G02 X84.418934 Y197.290928 Z-0.125000 I2.077510 J1.635567
G02 X84.321772 Y198.038055 Z-0.125000 I1.489137 J0.573541
G02 X84.591583 Y198.868668 Z-0.125000 I2.131460 J-0.233242
G02 X85.596509 Y199.828202 Z-0.125000 I2.114129 J-1.208142
G02 X87.252785 Y200.230418 Z-0.125000 I1.669098 J-3.261858
G02 X89.087526 Y199.807741 Z-0.125000 I0.013785 J-4.133586
G02 X89.516566 Y199.119298 Z-0.125000 I-0.337821 J-0.688443
G02 X89.196466 Y198.784114 Z-0.125000 I-0.335539 J0.000000
G02 X87.870467 Y199.043498 Z-0.125000 I-0.131199 J2.848317
G03 X87.024627 Y199.235961 Z-0.125000 I-0.877500 J-1.901562
G03 X86.355669 Y199.066398 Z-0.125000 I-0.020038 J-1.325309
G03 X85.694248 Y197.941208 Z-0.125000 I0.634401 J-1.129917
G03 X86.347469 Y196.820630 Z-0.125000 I1.279757 J-0.004669
G03 X87.012028 Y196.644406 Z-0.125000 I0.673945 J1.200342
G03 X87.871712 Y196.810230 Z-0.125000 I0.015221 J2.232433
G02 X88.746013 Y196.576147 Z-0.125000 I0.283035 J-0.692662
G02 X88.577839 Y195.899790 Z-0.125000 I-0.350590 J-0.271913
G02 X86.861616 Y195.583116 Z-0.125000 I-1.501664 J3.329413
G02 X85.365312 Y196.088850 Z-0.125000 I0.175736 J2.986355
G01 X85.365323 Y196.088830 Z-0.125000
G00 Z5.000000

(Change tool to Default tool)

G00 Z5.000000
G00 X91.073355 Y195.953440

G01 Z-0.125000 F100.0(Penetrate)
G02 X90.144128 Y196.780508 Z-0.125000 I0.952638 J2.005843 F400.000000
G02 X89.780386 Y198.017608 Z-0.125000 I2.021987 J1.266546
G02 X90.472980 Y199.522522 Z-0.125000 I1.929538 J0.023814
G02 X92.433834 Y200.233638 Z-0.125000 I1.960854 J-2.347899
G02 X94.245491 Y199.882535 Z-0.125000 I0.000000 J-4.849540
G02 X95.114411 Y199.154088 Z-0.125000 I-0.683968 J-1.698328
G02 X95.294508 Y198.710478 Z-0.125000 I-1.181966 J-0.738220
G02 X95.376754 Y197.941198 Z-0.125000 I-3.556594 J-0.769280
G02 X95.294509 Y197.171923 Z-0.125000 I-3.638810 J-0.000000
G02 X95.114411 Y196.728300 Z-0.125000 I-1.362176 J0.294635
G02 X93.527235 Y195.640175 Z-0.125000 I-2.040156 J1.274224
G02 X91.073355 Y195.953440 Z-0.125000 I-0.748565 J3.903863
G01 X91.073355 Y195.953440 Z-0.125000
G00 Z5.000000

(Change tool to Default tool)

G00 Z5.000000
G00 X93.593218 Y196.958720

G01 Z-0.125000 F100.0(Penetrate)
G03 X93.972003 Y198.228965 Z-0.125000 I-0.796026 J0.928973 F400.000000
G03 X92.932579 Y199.232938 Z-0.125000 I-1.396379 J-0.405636
G03 X91.604291 Y198.992677 Z-0.125000 I-0.400094 J-1.579936
G03 X91.045310 Y197.925348 Z-0.125000 I0.739499 J-1.067329
G03 X91.473748 Y196.950504 Z-0.125000 I1.323271 J-0.000000
G03 X92.574055 Y196.522070 Z-0.125000 I1.100307 J1.198689
G03 X93.047691 Y196.619259 Z-0.125000 I0.000000 J1.202690
G03 X93.593218 Y196.958720 Z-0.125000 I-0.836375 J1.952159
G01 X93.593218 Y196.958720 Z-0.125000
G00 Z5.000000

(Change tool to Default tool)

G00 Z5.000000
G00 X95.886336 Y197.941198

G01 Z-0.125000 F100.0(Penetrate)
G01 X95.886336 Y200.233638 Z-0.125000 F400.000000
G01 X96.650708 Y200.233638 Z-0.125000
G02 X97.305905 Y200.124469 Z-0.125000 I0.000000 J-2.020717
G02 X97.415080 Y199.971638 Z-0.125000 I-0.052384 J-0.152831
G03 X97.497627 Y199.889091 Z-0.125000 I0.082547 J0.000000
G03 X97.720829 Y199.971638 Z-0.125000 I0.000000 J0.343034
G02 X98.523453 Y200.269631 Z-0.125000 I0.805737 J-0.940296
G02 X100.085310 Y199.977638 Z-0.125000 I0.010721 J-4.265803
G03 X100.717938 Y199.858517 Z-0.125000 I0.632628 J1.620327
G03 X101.040020 Y199.977638 Z-0.125000 I0.000000 J0.494987
G02 X102.209717 Y200.372112 Z-0.125000 I1.074100 J-1.253496
G02 X103.820300 Y199.816358 Z-0.125000 I-0.182113 J-3.139391
G02 X104.209271 Y199.281243 Z-0.125000 I-0.572500 J-0.825074
G02 X104.511650 Y197.523918 Z-0.125000 I-6.985330 J-2.106626
G01 X104.601550 Y195.648830 Z-0.125000
G01 X103.821750 Y195.648830 Z-0.125000
G01 X103.041950 Y195.648830 Z-0.125000
G01 X102.967550 Y197.317918 Z-0.125000
G03 X102.722960 Y198.880168 Z-0.125000 I-7.144888 J-0.318350
G03 X102.447250 Y199.227168 Z-0.125000 I-0.542194 J-0.147769
G03 X102.001365 Y199.339610 Z-0.125000 I-0.445885 J-0.827846
G03 X101.555480 Y199.227168 Z-0.125000 I-0.000000 J-0.940289
G03 X101.279776 Y198.880168 Z-0.125000 I0.266474 J-0.494752
G03 X101.035180 Y197.317918 Z-0.125000 I6.901995 J-1.880895
G01 X100.960780 Y195.648840 Z-0.125000
G01 X100.217850 Y195.648840 Z-0.125000
G01 X99.474908 Y195.648840 Z-0.125000
G01 X99.400488 Y197.317928 Z-0.125000
G03 X99.155894 Y198.880178 Z-0.125000 I-7.146666 J-0.318648
G03 X98.880190 Y199.227178 Z-0.125000 I-0.542177 J-0.147750
G03 X98.434306 Y199.339622 Z-0.125000 I-0.445884 J-0.827831
G03 X97.988422 Y199.227178 Z-0.125000 I0.000000 J-0.940275
G03 X97.712717 Y198.880178 Z-0.125000 I0.266474 J-0.494752
G03 X97.468124 Y197.317928 Z-0.125000 I6.901860 J-1.880861
G01 X97.393704 Y195.648840 Z-0.125000
G01 X96.639980 Y195.648840 Z-0.125000
G01 X95.886325 Y195.648840 Z-0.125000
G01 X95.886336 Y197.941198 Z-0.125000
G00 Z5.000000

(Change tool to Default tool)

G00 Z5.000000
G00 X112.384040 Y195.884570

G01 Z-0.125000 F100.0(Penetrate)
G02 X111.512416 Y196.698053 Z-0.125000 I0.937285 J1.877975 F400.000000
G02 X111.173780 Y197.941198 Z-0.125000 I2.112496 J1.243145
G02 X111.528125 Y199.203746 Z-0.125000 I2.426430 J0.000000
G02 X112.433630 Y200.008838 Z-0.125000 I1.769016 J-1.077884
G02 X114.143655 Y200.370216 Z-0.125000 I1.656586 J-3.612318
G02 X115.199480 Y199.971638 Z-0.125000 I-0.022280 J-1.656737
G03 X115.422681 Y199.889089 Z-0.125000 I0.223201 J0.260476
G03 X115.505230 Y199.971638 Z-0.125000 I0.000000 J0.082549
G02 X116.041838 Y200.528414 Z-0.125000 I0.557155 J0.000000
G02 X116.821650 Y200.020138 Z-0.125000 I0.029770 J-0.806670
G02 X116.864131 Y199.799408 Z-0.125000 I-0.557411 J-0.221730
G02 X116.825650 Y197.727698 Z-0.125000 I-51.194824 J-0.085299
G02 X116.491386 Y195.911882 Z-0.125000 I-6.470831 J0.252505
G02 X116.124980 Y195.648720 Z-0.125000 I-0.366406 J0.123497
G02 X115.598517 Y195.741753 Z-0.125000 I0.000000 J1.536108
G02 X115.505480 Y195.874730 Z-0.125000 I0.048513 J0.132977
G03 X115.417153 Y195.963057 Z-0.125000 I-0.088327 J0.000000
G03 X115.012650 Y195.874730 Z-0.125000 I-0.000000 J-0.970398
G02 X113.658625 Y195.581695 Z-0.125000 I-1.342016 J2.926262
G02 X112.384290 Y195.884730 Z-0.125000 I0.010728 J2.876078
G01 X112.384040 Y195.884570 Z-0.125000
G00 Z5.000000

(Change tool to Default tool)

G00 Z5.000000
G00 X114.938950 Y196.861940

G01 Z-0.125000 F100.0(Penetrate)
G03 X115.469520 Y198.354022 Z-0.125000 I-0.641232 J1.068389 F400.000000
G03 X114.035600 Y199.360328 Z-0.125000 I-1.433920 J-0.518467
G03 X112.886424 Y198.921630 Z-0.125000 I-0.000000 J-1.724490
G03 X112.447740 Y197.941198 Z-0.125000 I0.876260 J-0.980432
G03 X112.886434 Y196.960758 Z-0.125000 I1.314944 J0.000000
G03 X114.035600 Y196.522070 Z-0.125000 I1.149166 J1.285807
G03 X114.356513 Y196.580442 Z-0.125000 I0.000000 J0.911331
G03 X114.938950 Y196.861940 Z-0.125000 I-1.262292 J3.355059
G01 X114.938950 Y196.861940 Z-0.125000
G00 Z5.000000

(Change tool to Default tool)

G00 Z5.000000
G00 X117.543550 Y197.941198

G01 Z-0.125000 F100.0(Penetrate)
G01 X117.543550 Y200.233638 Z-0.125000 F400.000000
G01 X118.307930 Y200.233638 Z-0.125000
G02 X118.963125 Y200.124469 Z-0.125000 I0.000000 J-2.020709
G02 X119.072300 Y199.971638 Z-0.125000 I-0.052384 J-0.152831
G03 X119.154840 Y199.889098 Z-0.125000 I0.082540 J0.000000
G03 X119.378050 Y199.971638 Z-0.125000 I-0.000000 J0.343081
G02 X119.718499 Y200.139812 Z-0.125000 I0.499972 J-0.583451
G02 X120.612510 Y200.233638 Z-0.125000 I0.894011 J-4.212311
G02 X121.859944 Y199.596157 Z-0.125000 I-0.000000 J-1.539242
G02 X122.601820 Y197.481768 Z-0.125000 I-3.191595 J-2.307180
G01 X122.691620 Y195.648760 Z-0.125000
G01 X121.911820 Y195.648760 Z-0.125000
G01 X121.132020 Y195.648760 Z-0.125000
G01 X121.057620 Y197.317848 Z-0.125000
G03 X120.813030 Y198.880098 Z-0.125000 I-7.144888 J-0.318350
G03 X120.537320 Y199.227098 Z-0.125000 I-0.542194 J-0.147769
G03 X120.091441 Y199.339542 Z-0.125000 I-0.445879 J-0.827809
G03 X119.645550 Y199.227098 Z-0.125000 I-0.000000 J-0.940301
G03 X119.369847 Y198.880098 Z-0.125000 I0.266473 J-0.494749
G03 X119.125260 Y197.317848 Z-0.125000 I6.901872 J-1.880834
G01 X119.050860 Y195.648760 Z-0.125000
G01 X118.297200 Y195.648760 Z-0.125000
G01 X117.543550 Y195.648760 Z-0.125000
G01 X117.543550 Y197.941198 Z-0.125000
G00 Z5.000000

(Change tool to Default tool)

G00 Z5.000000
G00 X98.188483 Y203.344798

G01 Z-0.125000 F100.0(Penetrate)
G02 X98.274425 Y203.811978 Z-0.125000 I1.459586 J-0.027010 F400.000000
G02 X98.561639 Y204.381858 Z-0.125000 I2.477516 J-0.891326
G03 X98.855913 Y205.962951 Z-0.125000 I-1.700464 J1.134423
G03 X97.256736 Y210.209298 Z-0.125000 I-15.878654 J-3.555612
G02 X96.476135 Y211.854600 Z-0.125000 I14.010102 J7.654812
G02 X95.963491 Y213.392248 Z-0.125000 I11.717201 J4.760736
G02 X96.741176 Y219.429425 Z-0.125000 I7.821063 J2.061199
G02 X101.403590 Y223.029278 Z-0.125000 I6.595640 J-3.723231
G02 X101.916017 Y222.997993 Z-0.125000 I0.208863 J-0.791212
G02 X102.896850 Y222.432768 Z-0.125000 I-1.475990 J-3.694913
G02 X103.566724 Y221.643260 Z-0.125000 I-1.596030 J-2.033120
G02 X103.555170 Y221.233298 Z-0.125000 I-0.355523 J-0.195124
G02 X103.186140 Y220.901577 Z-0.125000 I-0.760634 J0.475054
G02 X102.316710 Y220.632158 Z-0.125000 I-1.317668 J2.714633
G03 X100.230785 Y219.420042 Z-0.125000 I0.486411 J-3.237950
G03 X99.496286 Y217.050868 Z-0.125000 I2.719123 J-2.141435
G03 X100.978029 Y213.719295 Z-0.125000 I5.267190 J0.347329
G03 X103.957960 Y212.459978 Z-0.125000 I2.979931 J2.896058
G02 X106.780825 Y212.019282 Z-0.125000 I0.000000 J-9.261232
G02 X110.473140 Y210.374898 Z-0.125000 I-5.649682 J-17.653420
G03 X113.972235 Y208.878802 Z-0.125000 I7.741948 J13.267080
G03 X114.994950 Y209.075358 Z-0.125000 I0.317753 J1.105635
G03 X115.151062 Y210.185807 Z-0.125000 I-0.492798 J0.635478
G03 X111.995060 Y213.173838 Z-0.125000 I-9.747450 J-7.134676
G02 X109.707445 Y215.928149 Z-0.125000 I3.300090 J5.068071
G02 X110.174170 Y217.571268 Z-0.125000 I1.271751 J0.526607
G02 X111.265487 Y217.887091 Z-0.125000 I0.987840 J-1.370036
G02 X111.557230 Y217.486368 Z-0.125000 I-0.019697 J-0.320902
G03 X111.781039 Y216.507217 Z-0.125000 I1.062411 J-0.272314
G03 X113.842370 Y214.775248 Z-0.125000 I6.025639 J5.078863
G02 X118.446384 Y210.026522 Z-0.125000 I-6.153891 J-10.572577
G02 X118.001000 Y207.093368 Z-0.125000 I-2.164442 J-1.171733
G02 X116.311778 Y206.018499 Z-0.125000 I-3.409756 J3.493848
G02 X112.516230 Y205.027858 Z-0.125000 I-6.604141 J17.536679
G03 X109.546578 Y204.193530 Z-0.125000 I1.877248 J-12.383904
G03 X109.395600 Y203.718258 Z-0.125000 I0.126678 J-0.301858
G02 X109.269337 Y203.222974 Z-0.125000 I-0.299873 J-0.187289
G02 X107.861500 Y202.853518 Z-0.125000 I-1.407837 J2.497598
G01 X106.077970 Y202.853518 Z-0.125000
G01 X106.077970 Y203.495608 Z-0.125000
G02 X106.171733 Y204.081265 Z-0.125000 I1.875927 J0.000000
G02 X106.333450 Y204.273008 Z-0.125000 I0.318712 J-0.104736
G03 X106.433664 Y204.450066 Z-0.125000 I-0.088398 J0.166923
G03 X106.301450 Y204.868638 Z-0.125000 I-0.878055 J-0.047184
G02 X106.108217 Y205.357375 Z-0.125000 I1.232696 J0.769942
G02 X105.982270 Y206.487108 Z-0.125000 I6.671232 J1.315620
G02 X106.161446 Y207.551813 Z-0.125000 I2.798784 J0.076431
G02 X106.643550 Y208.239808 Z-0.125000 I1.585618 J-0.598191
G02 X107.291576 Y208.431680 Z-0.125000 I0.538113 J-0.627164
G02 X107.406020 Y208.137488 Z-0.125000 I-0.023979 J-0.178684
G03 X106.827997 Y206.939142 Z-0.125000 I2.097638 J-1.750374
G03 X106.881130 Y205.593358 Z-0.125000 I2.741874 J-0.565689
G02 X107.176420 Y204.490007 Z-0.125000 I-26.253356 J-7.617375
G02 X107.178410 Y204.381808 Z-0.125000 I-0.238438 J-0.058504
G02 X107.149832 Y204.274386 Z-0.125000 I-0.968658 J0.200189
G02 X106.981940 Y203.781408 Z-0.125000 I-20.608474 J6.743463
G03 X107.025088 Y203.443577 Z-0.125000 I0.356340 J-0.126159
G03 X107.313930 Y203.290168 Z-0.125000 I0.288842 J0.195215
G03 X108.400639 Y203.501403 Z-0.125000 I-0.000000 J2.900937
G03 X108.475080 Y203.759308 Z-0.125000 I-0.063892 J0.158137
G02 X108.528826 Y204.404419 Z-0.125000 I0.403679 J0.291163
G02 X109.954530 Y205.221968 Z-0.125000 I2.255460 J-2.281342
G02 X110.799349 Y205.406746 Z-0.125000 I2.416364 J-9.024125
G02 X112.639860 Y205.680228 Z-0.125000 I7.274673 J-42.627951
G03 X115.836249 Y206.447813 Z-0.125000 I-1.886710 J14.895693
G03 X117.272980 Y207.347158 Z-0.125000 I-1.351455 J3.756272
G03 X117.716025 Y209.826413 Z-0.125000 I-1.512168 J1.549439
G03 X114.239090 Y213.726808 Z-0.125000 I-8.415817 J-4.002202
G02 X111.265815 Y215.993977 Z-0.125000 I10.682590 J17.092893
G02 X110.919020 Y216.784898 Z-0.125000 I0.728511 J0.790921
G03 X110.762475 Y217.231528 Z-0.125000 I-0.715401 J0.000000
G03 X110.536830 Y217.263138 Z-0.125000 I-0.129539 J-0.103526
G03 X110.110590 Y216.327474 Z-0.125000 I0.594274 J-0.835639
G03 X110.765230 Y214.932868 Z-0.125000 I2.291235 J0.224575
G03 X111.420910 Y214.371967 Z-0.125000 I3.695134 J3.655834
G03 X113.287330 Y213.114918 Z-0.125000 I20.672477 J28.679618
G02 X115.848177 Y211.002207 Z-0.125000 I-6.868633 J-10.933942
G02 X116.261520 Y209.935648 Z-0.125000 I-1.119407 J-1.047199
G02 X115.916827 Y209.003406 Z-0.125000 I-1.484106 J0.018897
G02 X114.919840 Y208.328508 Z-0.125000 I-1.671407 J1.395227
G02 X113.438783 Y208.313533 Z-0.125000 I-0.764325 J2.346059
G02 X110.237580 Y209.749888 Z-0.125000 I4.022120 J13.249535
G03 X106.790149 Y211.389469 Z-0.125000 I-9.512055 J-15.556206
G03 X104.421850 Y211.800978 Z-0.125000 I-2.404580 J-6.818007
G02 X101.873993 Y212.223809 Z-0.125000 I0.040916 J8.134284
G02 X100.352030 Y213.167248 Z-0.125000 I1.244393 J3.706807
G02 X98.591822 Y217.416315 Z-0.125000 I4.257369 J4.252770
G02 X100.347030 Y220.718958 Z-0.125000 I3.980164 J0.002449
G02 X101.080477 Y221.094524 Z-0.125000 I1.926251 J-2.857832
G02 X101.632160 Y221.193038 Z-0.125000 I0.551683 J-1.495477
G03 X102.207561 Y221.232824 Z-0.125000 I0.000000 J4.180768
G03 X102.639710 Y221.333038 Z-0.125000 I-0.340403 J2.449776
G03 X102.721372 Y221.521831 Z-0.125000 I-0.042956 J0.130638
G03 X102.344480 Y221.965668 Z-0.125000 I-0.998537 J-0.465984
G03 X101.600886 Y222.217716 Z-0.125000 I-0.822601 J-1.203941
G03 X100.700610 Y222.054868 Z-0.125000 I-0.107273 J-1.976890
G03 X98.504224 Y220.554268 Z-0.125000 I2.861759 J-6.546369
G03 X97.099945 Y218.445378 Z-0.125000 I4.588901 J-4.577673
G03 X96.609930 Y214.904645 Z-0.125000 I6.596059 J-2.717126
G03 X98.049400 Y210.276578 Z-0.125000 I13.028102 J1.514244
G02 X99.038930 Y208.162305 Z-0.125000 I-20.783700 J-11.015962
G02 X99.429612 Y206.900628 Z-0.125000 I-6.970185 J-2.849665
G02 X99.567541 Y204.637449 Z-0.125000 I-7.337651 J-1.582983
G02 X99.169239 Y204.039018 Z-0.125000 I-0.751436 J0.068372
G03 X99.041017 Y203.621443 Z-0.125000 I0.144493 J-0.272842
G03 X99.516611 Y203.384478 Z-0.125000 I0.403537 J0.214163
G02 X100.091393 Y203.460755 Z-0.125000 I1.722385 J-10.775262
G02 X100.535770 Y203.492278 Z-0.125000 I0.678295 J-6.413841
G03 X100.820412 Y203.663980 Z-0.125000 I-0.012448 J0.342421
G03 X100.981660 Y204.268228 Z-0.125000 I-1.051529 J0.604248
G02 X101.072781 Y205.007734 Z-0.125000 I3.046339 J-0.000000
G02 X101.391300 Y205.905238 Z-0.125000 I4.827905 J-1.208122
G03 X101.689764 Y206.783404 Z-0.125000 I-3.854209 J1.799738
G03 X101.657220 Y207.103468 Z-0.125000 I-0.499648 J0.110883
G02 X101.809560 Y207.524874 Z-0.125000 I0.294369 J0.131823
G02 X102.285850 Y207.411788 Z-0.125000 I0.169511 J-0.345614
G02 X102.430044 Y207.088172 Z-0.125000 I-0.620742 J-0.470517
G02 X102.448460 Y206.565088 Z-0.125000 I-1.669664 J-0.320650
G03 X102.630829 Y206.239256 Z-0.125000 I0.314861 J-0.037724
G03 X103.635730 Y206.019268 Z-0.125000 I1.004901 J2.185191
G02 X104.813325 Y205.909421 Z-0.125000 I0.000000 J-6.367004
G02 X104.987410 Y205.764888 Z-0.125000 I-0.043102 J-0.229021
G02 X104.816810 Y205.442048 Z-0.125000 I-0.225086 J-0.087553
G02 X102.944870 Y205.291888 Z-0.125000 I-1.441238 J6.223757
G01 X101.873430 Y205.364288 Z-0.125000
G01 X101.797030 Y204.108898 Z-0.125000
G01 X101.720630 Y202.853518 Z-0.125000
G01 X99.949806 Y202.853518 Z-0.125000
G02 X98.395549 Y203.066151 Z-0.125000 I0.000000 J5.786808
G02 X98.188015 Y203.344748 Z-0.125000 I0.076227 J0.273380
G01 X98.188483 Y203.344798 Z-0.125000
G00 Z5.000000

(End cutting path id: path6142)


(Start cutting path id: path6142)
(Change tool to Default tool)

G00 Z5.000000
G00 X124.293160 Y194.695150

G01 Z-0.125000 F100.0(Penetrate)
G02 X124.711752 Y195.503435 Z-0.125000 I16.941831 J-8.261255 F400.000000
G02 X124.789100 Y195.598670 Z-0.125000 I0.300164 J-0.164759
G03 X124.810537 Y195.694696 Z-0.125000 I-0.053387 J0.062324
G03 X123.761800 Y197.879318 Z-0.125000 I-45.355331 J-20.428984
G02 X122.656495 Y200.082584 Z-0.125000 I157.949930 J80.617107
G02 X122.639370 Y200.156048 Z-0.125000 I0.149016 J0.073464
G01 X122.676143 Y200.196908 Z-0.125000
G02 X123.374150 Y200.233648 Z-0.125000 I0.698007 J-6.612100
G02 X123.958858 Y199.999188 Z-0.125000 I0.000000 J-0.846318
G02 X124.687830 Y198.978258 Z-0.125000 I-2.318604 J-2.426264
G03 X125.298409 Y197.745135 Z-0.125000 I22.575567 J10.410539
G03 X125.447830 Y197.544568 Z-0.125000 I0.725682 J0.384685
G03 X125.589067 Y197.561727 Z-0.125000 I0.063792 J0.064768
G03 X126.219590 Y198.799958 Z-0.125000 I-7.388029 J4.541728
G02 X126.973860 Y199.989305 Z-0.125000 I3.752818 J-1.546145
G02 X127.527510 Y200.233648 Z-0.125000 I0.553650 J-0.505079
G02 X128.169054 Y200.157982 Z-0.125000 I-0.000000 J-2.757553
G02 X128.244770 Y200.062018 Z-0.125000 I-0.022956 J-0.095964
G02 X128.210156 Y199.898078 Z-0.125000 I-0.405537 J-0.000000
G02 X126.869710 Y196.950850 Z-0.125000 I-138.537981 J61.230833
G02 X125.302168 Y194.286935 Z-0.125000 I-14.861243 J6.951725
G02 X124.693500 Y193.942220 Z-0.125000 I-0.680861 J0.492483
G01 X123.892340 Y193.873120 Z-0.125000
G01 X124.293160 Y194.695150 Z-0.125000
G00 Z5.000000

(Change tool to Default tool)

G00 Z5.000000
G00 X105.313600 Y197.177048

G01 Z-0.125000 F100.0(Penetrate)
G01 X105.313600 Y200.233638 Z-0.125000 F400.000000
G01 X105.950570 Y200.233638 Z-0.125000
G02 X106.494003 Y200.140083 Z-0.125000 I-0.000000 J-1.625094
G02 X106.587550 Y200.007628 Z-0.125000 I-0.046999 J-0.132455
G03 X106.675881 Y199.919297 Z-0.125000 I0.088331 J0.000000
G03 X107.080380 Y200.007628 Z-0.125000 I-0.000000 J0.970336
G02 X108.707124 Y200.251430 Z-0.125000 I1.235370 J-2.693838
G02 X110.174220 Y199.595448 Z-0.125000 I-0.373578 J-2.804065
G02 X110.751246 Y197.138771 Z-0.125000 I-1.390481 J-1.622702
G02 X108.501330 Y195.648760 Z-0.125000 I-2.249916 J0.953680
G02 X107.588964 Y195.720862 Z-0.125000 I-0.000000 J5.808469
G02 X107.080380 Y195.874770 Z-0.125000 I0.307508 J1.933409
G03 X106.787409 Y195.789252 Z-0.125000 I-0.097137 J-0.211820
G03 X106.587550 Y195.110620 Z-0.125000 I1.052239 J-0.678632
G02 X106.362646 Y194.345343 Z-0.125000 I-1.414450 J0.000000
G02 X105.950570 Y194.120460 Z-0.125000 I-0.412076 J0.265103
G01 X105.313600 Y194.120460 Z-0.125000
G01 X105.313600 Y197.177048 Z-0.125000
G00 Z5.000000

(Change tool to Default tool)

G00 Z5.000000
G00 X109.135460 Y196.958720

G01 Z-0.125000 F100.0(Penetrate)
G03 X109.525342 Y197.450440 Z-0.125000 I-1.070295 J1.249059 F400.000000
G03 X109.645040 Y197.941198 Z-0.125000 I-0.946199 J0.490758
G03 X109.214058 Y198.929336 Z-0.125000 I-1.348274 J-0.000000
G03 X108.116290 Y199.360328 Z-0.125000 I-1.097768 J-1.182554
G03 X107.018533 Y198.929341 Z-0.125000 I0.000000 J-1.613527
G03 X106.587550 Y197.941198 Z-0.125000 I0.917297 J-0.988143
G03 X107.018539 Y196.953051 Z-0.125000 I1.348278 J-0.000000
G03 X108.116290 Y196.522070 Z-0.125000 I1.097751 J1.182549
G03 X108.589930 Y196.619259 Z-0.125000 I-0.000000 J1.202712
G03 X109.135460 Y196.958720 Z-0.125000 I-0.836357 J1.952143
G01 X109.135460 Y196.958720 Z-0.125000
G00 Z5.000000

(Change tool to Default tool)

G00 Z5.000000
G00 X85.365323 Y196.088830

G01 Z-0.125000 F100.0(Penetrate)
G02 X84.808817 Y196.605676 Z-0.125000 I1.371302 J2.034557 F400.000000
G02 X84.418934 Y197.290928 Z-0.125000 I2.077510 J1.635567
G02 X84.321772 Y198.038055 Z-0.125000 I1.489137 J0.573541
G02 X84.591583 Y198.868668 Z-0.125000 I2.131460 J-0.233242
G02 X85.596509 Y199.828202 Z-0.125000 I2.114129 J-1.208142
G02 X87.252785 Y200.230418 Z-0.125000 I1.669098 J-3.261858
G02 X89.087526 Y199.807741 Z-0.125000 I0.013785 J-4.133586
G02 X89.516566 Y199.119298 Z-0.125000 I-0.337821 J-0.688443
G02 X89.196466 Y198.784114 Z-0.125000 I-0.335539 J0.000000
G02 X87.870467 Y199.043498 Z-0.125000 I-0.131199 J2.848317
G03 X87.024627 Y199.235961 Z-0.125000 I-0.877500 J-1.901562
G03 X86.355669 Y199.066398 Z-0.125000 I-0.020038 J-1.325309
G03 X85.694248 Y197.941208 Z-0.125000 I0.634401 J-1.129917
G03 X86.347469 Y196.820630 Z-0.125000 I1.279757 J-0.004669
G03 X87.012028 Y196.644406 Z-0.125000 I0.673945 J1.200342
G03 X87.871712 Y196.810230 Z-0.125000 I0.015221 J2.232433
G02 X88.746013 Y196.576147 Z-0.125000 I0.283035 J-0.692662
G02 X88.577839 Y195.899790 Z-0.125000 I-0.350590 J-0.271913
G02 X86.861616 Y195.583116 Z-0.125000 I-1.501664 J3.329413
G02 X85.365312 Y196.088850 Z-0.125000 I0.175736 J2.986355
G01 X85.365323 Y196.088830 Z-0.125000
G00 Z5.000000

(Change tool to Default tool)

G00 Z5.000000
G00 X91.073355 Y195.953440

G01 Z-0.125000 F100.0(Penetrate)
G02 X90.144128 Y196.780508 Z-0.125000 I0.952638 J2.005843 F400.000000
G02 X89.780386 Y198.017608 Z-0.125000 I2.021987 J1.266546
G02 X90.472980 Y199.522522 Z-0.125000 I1.929538 J0.023814
G02 X92.433834 Y200.233638 Z-0.125000 I1.960854 J-2.347899
G02 X94.245491 Y199.882535 Z-0.125000 I0.000000 J-4.849540
G02 X95.114411 Y199.154088 Z-0.125000 I-0.683968 J-1.698328
G02 X95.294508 Y198.710478 Z-0.125000 I-1.181966 J-0.738220
G02 X95.376754 Y197.941198 Z-0.125000 I-3.556594 J-0.769280
G02 X95.294509 Y197.171923 Z-0.125000 I-3.638810 J-0.000000
G02 X95.114411 Y196.728300 Z-0.125000 I-1.362176 J0.294635
G02 X93.527235 Y195.640175 Z-0.125000 I-2.040156 J1.274224
G02 X91.073355 Y195.953440 Z-0.125000 I-0.748565 J3.903863
G01 X91.073355 Y195.953440 Z-0.125000
G00 Z5.000000

(Change tool to Default tool)

G00 Z5.000000
G00 X93.593218 Y196.958720

G01 Z-0.125000 F100.0(Penetrate)
G03 X93.972003 Y198.228965 Z-0.125000 I-0.796026 J0.928973 F400.000000
G03 X92.932579 Y199.232938 Z-0.125000 I-1.396379 J-0.405636
G03 X91.604291 Y198.992677 Z-0.125000 I-0.400094 J-1.579936
G03 X91.045310 Y197.925348 Z-0.125000 I0.739499 J-1.067329
G03 X91.473748 Y196.950504 Z-0.125000 I1.323271 J-0.000000
G03 X92.574055 Y196.522070 Z-0.125000 I1.100307 J1.198689
G03 X93.047691 Y196.619259 Z-0.125000 I0.000000 J1.202690
G03 X93.593218 Y196.958720 Z-0.125000 I-0.836375 J1.952159
G01 X93.593218 Y196.958720 Z-0.125000
G00 Z5.000000

(Change tool to Default tool)

G00 Z5.000000
G00 X95.886336 Y197.941198

G01 Z-0.125000 F100.0(Penetrate)
G01 X95.886336 Y200.233638 Z-0.125000 F400.000000
G01 X96.650708 Y200.233638 Z-0.125000
G02 X97.305905 Y200.124469 Z-0.125000 I0.000000 J-2.020717
G02 X97.415080 Y199.971638 Z-0.125000 I-0.052384 J-0.152831
G03 X97.497627 Y199.889091 Z-0.125000 I0.082547 J0.000000
G03 X97.720829 Y199.971638 Z-0.125000 I0.000000 J0.343034
G02 X98.523453 Y200.269631 Z-0.125000 I0.805737 J-0.940296
G02 X100.085310 Y199.977638 Z-0.125000 I0.010721 J-4.265803
G03 X100.717938 Y199.858517 Z-0.125000 I0.632628 J1.620327
G03 X101.040020 Y199.977638 Z-0.125000 I0.000000 J0.494987
G02 X102.209717 Y200.372112 Z-0.125000 I1.074100 J-1.253496
G02 X103.820300 Y199.816358 Z-0.125000 I-0.182113 J-3.139391
G02 X104.209271 Y199.281243 Z-0.125000 I-0.572500 J-0.825074
G02 X104.511650 Y197.523918 Z-0.125000 I-6.985330 J-2.106626
G01 X104.601550 Y195.648830 Z-0.125000
G01 X103.821750 Y195.648830 Z-0.125000
G01 X103.041950 Y195.648830 Z-0.125000
G01 X102.967550 Y197.317918 Z-0.125000
G03 X102.722960 Y198.880168 Z-0.125000 I-7.144888 J-0.318350
G03 X102.447250 Y199.227168 Z-0.125000 I-0.542194 J-0.147769
G03 X102.001365 Y199.339610 Z-0.125000 I-0.445885 J-0.827846
G03 X101.555480 Y199.227168 Z-0.125000 I-0.000000 J-0.940289
G03 X101.279776 Y198.880168 Z-0.125000 I0.266474 J-0.494752
G03 X101.035180 Y197.317918 Z-0.125000 I6.901995 J-1.880895
G01 X100.960780 Y195.648840 Z-0.125000
G01 X100.217850 Y195.648840 Z-0.125000
G01 X99.474908 Y195.648840 Z-0.125000
G01 X99.400488 Y197.317928 Z-0.125000
G03 X99.155894 Y198.880178 Z-0.125000 I-7.146666 J-0.318648
G03 X98.880190 Y199.227178 Z-0.125000 I-0.542177 J-0.147750
G03 X98.434306 Y199.339622 Z-0.125000 I-0.445884 J-0.827831
G03 X97.988422 Y199.227178 Z-0.125000 I0.000000 J-0.940275
G03 X97.712717 Y198.880178 Z-0.125000 I0.266474 J-0.494752
G03 X97.468124 Y197.317928 Z-0.125000 I6.901860 J-1.880861
G01 X97.393704 Y195.648840 Z-0.125000
G01 X96.639980 Y195.648840 Z-0.125000
G01 X95.886325 Y195.648840 Z-0.125000
G01 X95.886336 Y197.941198 Z-0.125000
G00 Z5.000000

(Change tool to Default tool)

G00 Z5.000000
G00 X112.384040 Y195.884570

G01 Z-0.125000 F100.0(Penetrate)
G02 X111.512416 Y196.698053 Z-0.125000 I0.937285 J1.877975 F400.000000
G02 X111.173780 Y197.941198 Z-0.125000 I2.112496 J1.243145
G02 X111.528125 Y199.203746 Z-0.125000 I2.426430 J0.000000
G02 X112.433630 Y200.008838 Z-0.125000 I1.769016 J-1.077884
G02 X114.143655 Y200.370216 Z-0.125000 I1.656586 J-3.612318
G02 X115.199480 Y199.971638 Z-0.125000 I-0.022280 J-1.656737
G03 X115.422681 Y199.889089 Z-0.125000 I0.223201 J0.260476
G03 X115.505230 Y199.971638 Z-0.125000 I0.000000 J0.082549
G02 X116.041838 Y200.528414 Z-0.125000 I0.557155 J0.000000
G02 X116.821650 Y200.020138 Z-0.125000 I0.029770 J-0.806670
G02 X116.864131 Y199.799408 Z-0.125000 I-0.557411 J-0.221730
G02 X116.825650 Y197.727698 Z-0.125000 I-51.194824 J-0.085299
G02 X116.491386 Y195.911882 Z-0.125000 I-6.470831 J0.252505
G02 X116.124980 Y195.648720 Z-0.125000 I-0.366406 J0.123497
G02 X115.598517 Y195.741753 Z-0.125000 I0.000000 J1.536108
G02 X115.505480 Y195.874730 Z-0.125000 I0.048513 J0.132977
G03 X115.417153 Y195.963057 Z-0.125000 I-0.088327 J0.000000
G03 X115.012650 Y195.874730 Z-0.125000 I-0.000000 J-0.970398
G02 X113.658625 Y195.581695 Z-0.125000 I-1.342016 J2.926262
G02 X112.384290 Y195.884730 Z-0.125000 I0.010728 J2.876078
G01 X112.384040 Y195.884570 Z-0.125000
G00 Z5.000000

(Change tool to Default tool)

G00 Z5.000000
G00 X114.938950 Y196.861940

G01 Z-0.125000 F100.0(Penetrate)
G03 X115.469520 Y198.354022 Z-0.125000 I-0.641232 J1.068389 F400.000000
G03 X114.035600 Y199.360328 Z-0.125000 I-1.433920 J-0.518467
G03 X112.886424 Y198.921630 Z-0.125000 I-0.000000 J-1.724490
G03 X112.447740 Y197.941198 Z-0.125000 I0.876260 J-0.980432
G03 X112.886434 Y196.960758 Z-0.125000 I1.314944 J0.000000
G03 X114.035600 Y196.522070 Z-0.125000 I1.149166 J1.285807
G03 X114.356513 Y196.580442 Z-0.125000 I0.000000 J0.911331
G03 X114.938950 Y196.861940 Z-0.125000 I-1.262292 J3.355059
G01 X114.938950 Y196.861940 Z-0.125000
G00 Z5.000000

(Change tool to Default tool)

G00 Z5.000000
G00 X117.543550 Y197.941198

G01 Z-0.125000 F100.0(Penetrate)
G01 X117.543550 Y200.233638 Z-0.125000 F400.000000
G01 X118.307930 Y200.233638 Z-0.125000
G02 X118.963125 Y200.124469 Z-0.125000 I0.000000 J-2.020709
G02 X119.072300 Y199.971638 Z-0.125000 I-0.052384 J-0.152831
G03 X119.154840 Y199.889098 Z-0.125000 I0.082540 J0.000000
G03 X119.378050 Y199.971638 Z-0.125000 I-0.000000 J0.343081
G02 X119.718499 Y200.139812 Z-0.125000 I0.499972 J-0.583451
G02 X120.612510 Y200.233638 Z-0.125000 I0.894011 J-4.212311
G02 X121.859944 Y199.596157 Z-0.125000 I-0.000000 J-1.539242
G02 X122.601820 Y197.481768 Z-0.125000 I-3.191595 J-2.307180
G01 X122.691620 Y195.648760 Z-0.125000
G01 X121.911820 Y195.648760 Z-0.125000
G01 X121.132020 Y195.648760 Z-0.125000
G01 X121.057620 Y197.317848 Z-0.125000
G03 X120.813030 Y198.880098 Z-0.125000 I-7.144888 J-0.318350
G03 X120.537320 Y199.227098 Z-0.125000 I-0.542194 J-0.147769
G03 X120.091441 Y199.339542 Z-0.125000 I-0.445879 J-0.827809
G03 X119.645550 Y199.227098 Z-0.125000 I-0.000000 J-0.940301
G03 X119.369847 Y198.880098 Z-0.125000 I0.266473 J-0.494749
G03 X119.125260 Y197.317848 Z-0.125000 I6.901872 J-1.880834
G01 X119.050860 Y195.648760 Z-0.125000
G01 X118.297200 Y195.648760 Z-0.125000
G01 X117.543550 Y195.648760 Z-0.125000
G01 X117.543550 Y197.941198 Z-0.125000
G00 Z5.000000

(Change tool to Default tool)

G00 Z5.000000
G00 X98.188483 Y203.344798

G01 Z-0.125000 F100.0(Penetrate)
G02 X98.274425 Y203.811978 Z-0.125000 I1.459586 J-0.027010 F400.000000
G02 X98.561639 Y204.381858 Z-0.125000 I2.477516 J-0.891326
G03 X98.855913 Y205.962951 Z-0.125000 I-1.700464 J1.134423
G03 X97.256736 Y210.209298 Z-0.125000 I-15.878654 J-3.555612
G02 X96.476135 Y211.854600 Z-0.125000 I14.010102 J7.654812
G02 X95.963491 Y213.392248 Z-0.125000 I11.717201 J4.760736
G02 X96.741176 Y219.429425 Z-0.125000 I7.821063 J2.061199
G02 X101.403590 Y223.029278 Z-0.125000 I6.595640 J-3.723231
G02 X101.916017 Y222.997993 Z-0.125000 I0.208863 J-0.791212
G02 X102.896850 Y222.432768 Z-0.125000 I-1.475990 J-3.694913
G02 X103.566724 Y221.643260 Z-0.125000 I-1.596030 J-2.033120
G02 X103.555170 Y221.233298 Z-0.125000 I-0.355523 J-0.195124
G02 X103.186140 Y220.901577 Z-0.125000 I-0.760634 J0.475054
G02 X102.316710 Y220.632158 Z-0.125000 I-1.317668 J2.714633
G03 X100.230785 Y219.420042 Z-0.125000 I0.486411 J-3.237950
G03 X99.496286 Y217.050868 Z-0.125000 I2.719123 J-2.141435
G03 X100.978029 Y213.719295 Z-0.125000 I5.267190 J0.347329
G03 X103.957960 Y212.459978 Z-0.125000 I2.979931 J2.896058
G02 X106.780825 Y212.019282 Z-0.125000 I0.000000 J-9.261232
G02 X110.473140 Y210.374898 Z-0.125000 I-5.649682 J-17.653420
G03 X113.972235 Y208.878802 Z-0.125000 I7.741948 J13.267080
G03 X114.994950 Y209.075358 Z-0.125000 I0.317753 J1.105635
G03 X115.151062 Y210.185807 Z-0.125000 I-0.492798 J0.635478
G03 X111.995060 Y213.173838 Z-0.125000 I-9.747450 J-7.134676
G02 X109.707445 Y215.928149 Z-0.125000 I3.300090 J5.068071
G02 X110.174170 Y217.571268 Z-0.125000 I1.271751 J0.526607
G02 X111.265487 Y217.887091 Z-0.125000 I0.987840 J-1.370036
G02 X111.557230 Y217.486368 Z-0.125000 I-0.019697 J-0.320902
G03 X111.781039 Y216.507217 Z-0.125000 I1.062411 J-0.272314
G03 X113.842370 Y214.775248 Z-0.125000 I6.025639 J5.078863
G02 X118.446384 Y210.026522 Z-0.125000 I-6.153891 J-10.572577
G02 X118.001000 Y207.093368 Z-0.125000 I-2.164442 J-1.171733
G02 X116.311778 Y206.018499 Z-0.125000 I-3.409756 J3.493848
G02 X112.516230 Y205.027858 Z-0.125000 I-6.604141 J17.536679
G03 X109.546578 Y204.193530 Z-0.125000 I1.877248 J-12.383904
G03 X109.395600 Y203.718258 Z-0.125000 I0.126678 J-0.301858
G02 X109.269337 Y203.222974 Z-0.125000 I-0.299873 J-0.187289
G02 X107.861500 Y202.853518 Z-0.125000 I-1.407837 J2.497598
G01 X106.077970 Y202.853518 Z-0.125000
G01 X106.077970 Y203.495608 Z-0.125000
G02 X106.171733 Y204.081265 Z-0.125000 I1.875927 J0.000000
G02 X106.333450 Y204.273008 Z-0.125000 I0.318712 J-0.104736
G03 X106.433664 Y204.450066 Z-0.125000 I-0.088398 J0.166923
G03 X106.301450 Y204.868638 Z-0.125000 I-0.878055 J-0.047184
G02 X106.108217 Y205.357375 Z-0.125000 I1.232696 J0.769942
G02 X105.982270 Y206.487108 Z-0.125000 I6.671232 J1.315620
G02 X106.161446 Y207.551813 Z-0.125000 I2.798784 J0.076431
G02 X106.643550 Y208.239808 Z-0.125000 I1.585618 J-0.598191
G02 X107.291576 Y208.431680 Z-0.125000 I0.538113 J-0.627164
G02 X107.406020 Y208.137488 Z-0.125000 I-0.023979 J-0.178684
G03 X106.827997 Y206.939142 Z-0.125000 I2.097638 J-1.750374
G03 X106.881130 Y205.593358 Z-0.125000 I2.741874 J-0.565689
G02 X107.176420 Y204.490007 Z-0.125000 I-26.253356 J-7.617375
G02 X107.178410 Y204.381808 Z-0.125000 I-0.238438 J-0.058504
G02 X107.149832 Y204.274386 Z-0.125000 I-0.968658 J0.200189
G02 X106.981940 Y203.781408 Z-0.125000 I-20.608474 J6.743463
G03 X107.025088 Y203.443577 Z-0.125000 I0.356340 J-0.126159
G03 X107.313930 Y203.290168 Z-0.125000 I0.288842 J0.195215
G03 X108.400639 Y203.501403 Z-0.125000 I-0.000000 J2.900937
G03 X108.475080 Y203.759308 Z-0.125000 I-0.063892 J0.158137
G02 X108.528826 Y204.404419 Z-0.125000 I0.403679 J0.291163
G02 X109.954530 Y205.221968 Z-0.125000 I2.255460 J-2.281342
G02 X110.799349 Y205.406746 Z-0.125000 I2.416364 J-9.024125
G02 X112.639860 Y205.680228 Z-0.125000 I7.274673 J-42.627951
G03 X115.836249 Y206.447813 Z-0.125000 I-1.886710 J14.895693
G03 X117.272980 Y207.347158 Z-0.125000 I-1.351455 J3.756272
G03 X117.716025 Y209.826413 Z-0.125000 I-1.512168 J1.549439
G03 X114.239090 Y213.726808 Z-0.125000 I-8.415817 J-4.002202
G02 X111.265815 Y215.993977 Z-0.125000 I10.682590 J17.092893
G02 X110.919020 Y216.784898 Z-0.125000 I0.728511 J0.790921
G03 X110.762475 Y217.231528 Z-0.125000 I-0.715401 J0.000000
G03 X110.536830 Y217.263138 Z-0.125000 I-0.129539 J-0.103526
G03 X110.110590 Y216.327474 Z-0.125000 I0.594274 J-0.835639
G03 X110.765230 Y214.932868 Z-0.125000 I2.291235 J0.224575
G03 X111.420910 Y214.371967 Z-0.125000 I3.695134 J3.655834
G03 X113.287330 Y213.114918 Z-0.125000 I20.672477 J28.679618
G02 X115.848177 Y211.002207 Z-0.125000 I-6.868633 J-10.933942
G02 X116.261520 Y209.935648 Z-0.125000 I-1.119407 J-1.047199
G02 X115.916827 Y209.003406 Z-0.125000 I-1.484106 J0.018897
G02 X114.919840 Y208.328508 Z-0.125000 I-1.671407 J1.395227
G02 X113.438783 Y208.313533 Z-0.125000 I-0.764325 J2.346059
G02 X110.237580 Y209.749888 Z-0.125000 I4.022120 J13.249535
G03 X106.790149 Y211.389469 Z-0.125000 I-9.512055 J-15.556206
G03 X104.421850 Y211.800978 Z-0.125000 I-2.404580 J-6.818007
G02 X101.873993 Y212.223809 Z-0.125000 I0.040916 J8.134284
G02 X100.352030 Y213.167248 Z-0.125000 I1.244393 J3.706807
G02 X98.591822 Y217.416315 Z-0.125000 I4.257369 J4.252770
G02 X100.347030 Y220.718958 Z-0.125000 I3.980164 J0.002449
G02 X101.080477 Y221.094524 Z-0.125000 I1.926251 J-2.857832
G02 X101.632160 Y221.193038 Z-0.125000 I0.551683 J-1.495477
G03 X102.207561 Y221.232824 Z-0.125000 I0.000000 J4.180768
G03 X102.639710 Y221.333038 Z-0.125000 I-0.340403 J2.449776
G03 X102.721372 Y221.521831 Z-0.125000 I-0.042956 J0.130638
G03 X102.344480 Y221.965668 Z-0.125000 I-0.998537 J-0.465984
G03 X101.600886 Y222.217716 Z-0.125000 I-0.822601 J-1.203941
G03 X100.700610 Y222.054868 Z-0.125000 I-0.107273 J-1.976890
G03 X98.504224 Y220.554268 Z-0.125000 I2.861759 J-6.546369
G03 X97.099945 Y218.445378 Z-0.125000 I4.588901 J-4.577673
G03 X96.609930 Y214.904645 Z-0.125000 I6.596059 J-2.717126
G03 X98.049400 Y210.276578 Z-0.125000 I13.028102 J1.514244
G02 X99.038930 Y208.162305 Z-0.125000 I-20.783700 J-11.015962
G02 X99.429612 Y206.900628 Z-0.125000 I-6.970185 J-2.849665
G02 X99.567541 Y204.637449 Z-0.125000 I-7.337651 J-1.582983
G02 X99.169239 Y204.039018 Z-0.125000 I-0.751436 J0.068372
G03 X99.041017 Y203.621443 Z-0.125000 I0.144493 J-0.272842
G03 X99.516611 Y203.384478 Z-0.125000 I0.403537 J0.214163
G02 X100.091393 Y203.460755 Z-0.125000 I1.722385 J-10.775262
G02 X100.535770 Y203.492278 Z-0.125000 I0.678295 J-6.413841
G03 X100.820412 Y203.663980 Z-0.125000 I-0.012448 J0.342421
G03 X100.981660 Y204.268228 Z-0.125000 I-1.051529 J0.604248
G02 X101.072781 Y205.007734 Z-0.125000 I3.046339 J-0.000000
G02 X101.391300 Y205.905238 Z-0.125000 I4.827905 J-1.208122
G03 X101.689764 Y206.783404 Z-0.125000 I-3.854209 J1.799738
G03 X101.657220 Y207.103468 Z-0.125000 I-0.499648 J0.110883
G02 X101.809560 Y207.524874 Z-0.125000 I0.294369 J0.131823
G02 X102.285850 Y207.411788 Z-0.125000 I0.169511 J-0.345614
G02 X102.430044 Y207.088172 Z-0.125000 I-0.620742 J-0.470517
G02 X102.448460 Y206.565088 Z-0.125000 I-1.669664 J-0.320650
G03 X102.630829 Y206.239256 Z-0.125000 I0.314861 J-0.037724
G03 X103.635730 Y206.019268 Z-0.125000 I1.004901 J2.185191
G02 X104.813325 Y205.909421 Z-0.125000 I0.000000 J-6.367004
G02 X104.987410 Y205.764888 Z-0.125000 I-0.043102 J-0.229021
G02 X104.816810 Y205.442048 Z-0.125000 I-0.225086 J-0.087553
G02 X102.944870 Y205.291888 Z-0.125000 I-1.441238 J6.223757
G01 X101.873430 Y205.364288 Z-0.125000
G01 X101.797030 Y204.108898 Z-0.125000
G01 X101.720630 Y202.853518 Z-0.125000
G01 X99.949806 Y202.853518 Z-0.125000
G02 X98.395549 Y203.066151 Z-0.125000 I0.000000 J5.786808
G02 X98.188015 Y203.344748 Z-0.125000 I0.076227 J0.273380
G01 X98.188483 Y203.344798 Z-0.125000
G00 Z5.000000

(End cutting path id: path6142)


(Footer)
M5
G00 X0.0000 Y0.0000
M2
(Using default footer. To add your own footer create file "footer" in the output dir.)
(end)
%