%
(Header)
(Generated by gcodetools from Inkscape.)
(Using default header. To add your own header create file "header" in the output dir.)
M3
(Header end.)
G21 (All units in mm)

(Start cutting path id: path3422)
(Change tool to Default tool)

G00 Z5.000000
G00 X230.957900 Y79.255420

G01 Z1.000000 F100.0(Penetrate)
G02 X232.475376 Y82.833582 Z1.000000 I84.898526 J-33.894065 F400.000000
G02 X232.747870 Y83.238360 Z1.000000 I1.314249 J-0.590636
G03 X232.832412 Y83.645652 Z1.000000 I-0.284004 J0.271371
G03 X229.040050 Y93.292050 Z1.000000 I-228.845343 J-84.399049
G02 X225.052850 Y102.999269 Z1.000000 I794.374788 J331.958644
G02 X224.988920 Y103.328450 Z1.000000 I0.815529 J0.329181
G02 X225.148955 Y103.510448 Z1.000000 I0.183505 J0.000000
G02 X227.640940 Y103.670470 Z1.000000 I2.491985 J-19.323552
G02 X229.652983 Y102.744801 Z1.000000 I-0.000000 J-2.649531
G02 X232.382350 Y98.136420 Z1.000000 I-11.766814 J-10.081474
G03 X234.596916 Y92.675259 Z1.000000 I113.742702 J42.944436
G03 X235.125390 Y91.816360 Z1.000000 I3.266015 J1.417520
G03 X235.622018 Y91.873065 Z1.000000 I0.229738 J0.191040
G03 X237.910890 Y97.350410 Z1.000000 I-37.643353 J18.947309
G02 X240.727885 Y102.716309 Z1.000000 I18.236781 J-6.151578
G02 X242.631520 Y103.670470 Z1.000000 I1.903635 J-1.421880
G02 X244.896134 Y103.346333 Z1.000000 I-0.000000 J-8.073048
G02 X245.220270 Y102.913910 Z1.000000 I-0.126375 J-0.432423
G02 X245.091757 Y102.181096 Z1.000000 I-2.153608 J-0.000000
G02 X240.257340 Y89.199090 Z1.000000 I-702.091474 J254.063290
G02 X234.496408 Y77.279788 Z1.000000 I-73.274481 J28.063748
G02 X232.402810 Y75.936310 Z1.000000 I-2.383774 J1.411725
G01 X229.511220 Y75.631760 Z1.000000
G01 X230.957900 Y79.255420 Z1.000000
G00 Z5.000000

(Change tool to Default tool)

G00 Z5.000000
G00 X162.455620 Y90.196270

G01 Z1.000000 F100.0(Penetrate)
G01 X162.455620 Y103.670470 Z1.000000 F400.000000
G01 X164.754650 Y103.670470 Z1.000000
G02 X166.658801 Y103.275619 Z1.000000 I0.000000 J-4.788765
G02 X167.053660 Y102.674160 Z1.000000 I-0.260649 J-0.601459
G03 X167.421802 Y102.306018 Z1.000000 I0.368142 J0.000000
G03 X168.832420 Y102.674160 Z1.000000 I0.000000 J2.886620
G02 X174.612354 Y103.693930 Z1.000000 I4.350215 J-7.766624
G02 X179.998900 Y100.857170 Z1.000000 I-1.538245 J-9.453344
G02 X182.468157 Y89.511702 Z1.000000 I-8.052363 J-7.693979
G02 X173.960990 Y83.459170 Z1.000000 I-8.507167 J2.952380
G02 X170.693245 Y83.773630 Z1.000000 I-0.000000 J17.135783
G02 X168.832420 Y84.455470 Z1.000000 I1.190844 J6.130092
G03 X167.813871 Y84.154632 Z1.000000 I-0.362532 J-0.647245
G03 X167.053660 Y81.086910 Z1.000000 I5.809570 J-3.067722
G02 X166.188378 Y77.587356 Z1.000000 I-7.509457 J0.000000
G02 X164.754650 Y76.722070 Z1.000000 I-1.433728 J0.755159
G01 X162.455620 Y76.722070 Z1.000000
G01 X162.455620 Y90.196270 Z1.000000
G00 Z5.000000

(Change tool to Default tool)

G00 Z5.000000
G00 X176.249740 Y89.233830

G01 Z1.000000 F100.0(Penetrate)
G03 X177.636165 Y91.340242 Z1.000000 I-5.077449 J4.851413 F400.000000
G03 X178.088950 Y93.564820 Z1.000000 I-5.238392 J2.224578
G03 X176.372929 Y98.104679 Z1.000000 I-6.863276 J-0.000000
G03 X172.571310 Y99.820690 Z1.000000 I-3.801619 J-3.353014
G03 X168.769680 Y98.104675 Z1.000000 I0.000000 J-5.069040
G03 X167.053660 Y93.564820 Z1.000000 I5.147248 J-4.539855
G03 X168.769685 Y89.024960 Z1.000000 I6.863265 J0.000000
G03 X172.571310 Y87.308950 Z1.000000 I3.801625 J3.353029
G03 X174.235580 Y87.718083 Z1.000000 I0.000000 J3.589522
G03 X176.249740 Y89.233830 Z1.000000 I-3.600574 J6.880632
G01 X176.249740 Y89.233830 Z1.000000
G00 Z5.000000

(Change tool to Default tool)

G00 Z5.000000
G00 X90.457039 Y85.399110

G01 Z1.000000 F100.0(Penetrate)
G02 X88.493997 Y87.604597 Z1.000000 I6.087864 J7.395006 F400.000000
G02 X87.041279 Y90.698270 Z1.000000 I10.787405 J6.953435
G02 X86.681892 Y94.011179 Z1.000000 I8.101804 J2.554838
G02 X87.664409 Y97.653330 Z1.000000 I10.843152 J-0.971481
G02 X91.505907 Y101.990052 Z1.000000 I9.259605 J-4.332446
G02 X97.269389 Y103.656290 Z1.000000 I5.810292 J-9.296679
G02 X103.658924 Y101.902503 Z1.000000 I0.052760 J-12.324101
G02 X105.439980 Y98.758200 Z1.000000 I-1.884971 J-3.144303
G02 X104.110119 Y97.351408 Z1.000000 I-1.409017 J0.000000
G02 X99.498759 Y98.423910 Z1.000000 I-0.473445 J8.414183
G03 X96.456994 Y99.252212 Z1.000000 I-3.160755 J-5.607931
G03 X94.031459 Y98.524980 Z1.000000 I-0.076769 J-4.152506
G03 X91.409076 Y93.564910 Z1.000000 I3.413707 J-4.978083
G03 X94.001959 Y88.625070 Z1.000000 I5.968087 J-0.017811
G03 X96.417252 Y87.865425 Z1.000000 I2.451458 J3.574878
G03 X99.503369 Y88.579170 Z1.000000 I0.056602 J6.784066
G02 X103.895885 Y89.566722 Z1.000000 I4.198702 J-8.412862
G02 X105.144600 Y88.863611 Z1.000000 I-0.031255 J-1.515913
G02 X105.156524 Y87.535745 Z1.000000 I-1.060617 J-0.673511
G02 X102.051960 Y84.565740 Z1.000000 I-7.140529 J4.356425
G02 X95.911257 Y83.219091 Z1.000000 I-5.346333 J9.705120
G02 X90.457099 Y85.399150 Z1.000000 I0.693445 J9.647631
G01 X90.457039 Y85.399110 Z1.000000
G00 Z5.000000

(Change tool to Default tool)

G00 Z5.000000
G00 X111.058830 Y84.802270

G01 Z1.000000 F100.0(Penetrate)
G02 X107.787891 Y88.247051 Z1.000000 I4.229539 J7.291420 F400.000000
G02 X106.392170 Y93.901670 Z1.000000 I11.275526 J5.782681
G02 X109.175835 Y100.817059 Z1.000000 I9.737076 J0.098467
G02 X115.969160 Y103.670470 Z1.000000 I6.793325 J-6.659978
G02 X122.308314 Y102.195789 Z1.000000 I-0.000000 J-14.362281
G02 X125.644080 Y98.911560 Z1.000000 I-3.279360 J-6.666990
G02 X126.290216 Y96.987480 Z1.000000 I-6.098496 J-3.118502
G02 X126.590940 Y93.564820 Z1.000000 I-19.326988 J-3.422660
G02 X126.290217 Y90.142154 Z1.000000 I-19.627819 J0.000000
G02 X125.644080 Y88.218070 Z1.000000 I-6.744631 J1.194417
G02 X119.646164 Y83.523782 Z1.000000 I-8.062927 J4.123117
G02 X111.058830 Y84.802270 Z1.000000 I-2.683145 J11.456780
G01 X111.058830 Y84.802270 Z1.000000
G00 Z5.000000

(Change tool to Default tool)

G00 Z5.000000
G00 X120.153680 Y89.233830

G01 Z1.000000 F100.0(Penetrate)
G03 X121.724512 Y95.031915 Z1.000000 I-4.545654 J4.343350 F400.000000
G03 X117.769260 Y99.259150 Z1.000000 I-5.680543 J-1.351052
G03 X113.198629 Y98.327072 Z1.000000 I-1.434521 J-4.638084
G03 X110.957620 Y93.494960 Z1.000000 I4.089049 J-4.832112
G03 X112.664832 Y89.016178 Z1.000000 I6.728534 J-0.000000
G03 X116.475270 Y87.308950 Z1.000000 I3.810438 J3.398731
G03 X118.139525 Y87.718076 Z1.000000 I-0.000000 J3.589513
G03 X120.153680 Y89.233830 Z1.000000 I-3.600408 J6.880369
G01 X120.153680 Y89.233830 Z1.000000
G00 Z5.000000

(Change tool to Default tool)

G00 Z5.000000
G00 X128.430160 Y93.564820

G01 Z1.000000 F100.0(Penetrate)
G01 X128.430160 Y103.670470 Z1.000000 F400.000000
G01 X131.188970 Y103.670470 Z1.000000
G02 X133.486331 Y103.208993 Z1.000000 I0.000000 J-5.949192
G02 X133.947800 Y102.515530 Z1.000000 I-0.290309 J-0.693463
G03 X134.278334 Y102.184996 Z1.000000 I0.330534 J0.000000
G03 X135.051330 Y102.515530 Z1.000000 I-0.000000 J1.069142
G02 X138.022109 Y103.791248 Z1.000000 I2.983406 J-2.850590
G02 X143.585350 Y102.541630 Z1.000000 I0.039273 J-12.833615
G03 X145.838922 Y102.031812 Z1.000000 I2.253572 J4.725878
G03 X147.031160 Y102.541630 Z1.000000 I0.000000 J1.648966
G02 X151.285801 Y104.185527 Z1.000000 I3.875794 J-3.703352
G02 X157.065920 Y101.830660 Z1.000000 I-0.709366 J-10.012374
G02 X158.445483 Y99.605212 Z1.000000 I-2.750137 J-3.245141
G02 X159.561180 Y91.725010 Z1.000000 I-38.155375 J-9.421209
G01 X159.885540 Y83.459140 Z1.000000
G01 X157.071030 Y83.459140 Z1.000000
G01 X154.256520 Y83.459140 Z1.000000
G01 X153.987940 Y90.816930 Z1.000000
G03 X153.086747 Y97.818599 Z1.000000 I-38.596559 J-1.408976
G03 X152.110050 Y99.233370 Z1.000000 I-2.235532 J-0.498795
G03 X150.500724 Y99.715249 Z1.000000 I-1.609326 J-2.446388
G03 X148.891420 Y99.233370 Z1.000000 I-0.000000 J-2.928190
G03 X147.914709 Y97.818591 Z1.000000 I1.258821 J-1.913574
G03 X147.013530 Y90.816930 Z1.000000 I37.694601 J-8.410474
G01 X146.744930 Y83.459170 Z1.000000
G01 X144.063480 Y83.459170 Z1.000000
G01 X141.382030 Y83.459170 Z1.000000
G01 X141.113430 Y90.816960 Z1.000000
G03 X140.212251 Y97.818613 Z1.000000 I-38.595674 J-1.408810
G03 X139.235540 Y99.233400 Z1.000000 I-2.235555 J-0.498801
G03 X137.626225 Y99.715282 Z1.000000 I-1.609315 J-2.446329
G03 X136.016910 Y99.233400 Z1.000000 I-0.000000 J-2.928211
G03 X135.040205 Y97.818617 Z1.000000 I1.258855 J-1.913588
G03 X134.139020 Y90.816960 Z1.000000 I37.694234 J-8.410457
G01 X133.870420 Y83.459170 Z1.000000
G01 X131.150300 Y83.459170 Z1.000000
G01 X128.430160 Y83.459170 Z1.000000
G01 X128.430160 Y93.564820 Z1.000000
G00 Z5.000000

(Change tool to Default tool)

G00 Z5.000000
G00 X187.974710 Y84.498710

G01 Z1.000000 F100.0(Penetrate)
G02 X184.902572 Y87.889200 Z1.000000 I4.203655 J6.896035 F400.000000
G02 X183.606580 Y93.564820 Z1.000000 I11.779807 J5.675620
G02 X184.966182 Y99.335780 Z1.000000 I12.927493 J0.000000
G02 X188.153690 Y102.679500 Z1.000000 I7.022724 J-3.503479
G02 X194.247253 Y104.216470 Z1.000000 I5.895437 J-10.525463
G02 X198.136380 Y102.515530 Z1.000000 I-0.090392 J-5.503308
G03 X198.909374 Y102.184994 Z1.000000 I0.772994 J0.738598
G03 X199.239910 Y102.515530 Z1.000000 I0.000000 J0.330536
G02 X201.254964 Y104.623379 Z1.000000 I2.109986 J0.000000
G02 X203.991210 Y102.729490 Z1.000000 I0.123625 J-2.744965
G02 X204.144745 Y101.766745 Z1.000000 I-2.968073 J-0.966952
G02 X204.005310 Y92.623850 Z1.000000 I-275.477914 J-0.371297
G02 X202.763266 Y84.439037 Z1.000000 I-34.952776 J1.117431
G02 X201.476390 Y83.459170 Z1.000000 I-1.286876 J0.355105
G02 X199.632662 Y83.851352 Z1.000000 I-0.000000 J4.529965
G02 X199.240470 Y84.455470 Z1.000000 I0.269185 J0.604118
G03 X198.872326 Y84.823614 Z1.000000 I-0.368144 J0.000000
G03 X197.461720 Y84.455470 Z1.000000 I0.000000 J-2.886564
G02 X192.582272 Y83.193898 Z1.000000 I-4.834357 J8.631061
G02 X187.975280 Y84.498670 Z1.000000 I0.040701 J8.929462
G01 X187.974710 Y84.498710 Z1.000000
G00 Z5.000000

(Change tool to Default tool)

G00 Z5.000000
G00 X197.196080 Y88.807170

G01 Z1.000000 F100.0(Penetrate)
G03 X199.506661 Y95.659932 Z1.000000 I-3.715681 J5.068751 F400.000000
G03 X193.935660 Y99.820690 Z1.000000 I-5.571001 J-1.649236
G03 X189.956002 Y98.069301 Z1.000000 I0.000000 J-5.397157
G03 X188.204630 Y93.564820 Z1.000000 I4.917015 J-4.504481
G03 X189.956010 Y89.060331 Z1.000000 I6.668385 J-0.000000
G03 X193.935660 Y87.308950 Z1.000000 I3.979650 J3.645774
G03 X195.070960 Y87.557309 Z1.000000 I-0.000000 J2.719022
G03 X197.196080 Y88.807170 Z1.000000 I-5.109076 J11.118472
G01 X197.196080 Y88.807170 Z1.000000
G00 Z5.000000

(Change tool to Default tool)

G00 Z5.000000
G00 X206.596770 Y93.564820

G01 Z1.000000 F100.0(Penetrate)
G01 X206.596770 Y103.670470 Z1.000000 F400.000000
G01 X209.355600 Y103.670470 Z1.000000
G02 X211.652939 Y103.208996 Z1.000000 I0.000000 J-5.949122
G02 X212.114410 Y102.515530 Z1.000000 I-0.290312 J-0.693466
G03 X212.444945 Y102.184995 Z1.000000 I0.330535 J0.000000
G03 X213.217950 Y102.515530 Z1.000000 I0.000000 J1.069161
G02 X214.494783 Y103.265187 Z1.000000 I1.955477 J-1.868419
G02 X217.673460 Y103.670470 Z1.000000 I3.178677 J-12.262709
G02 X221.997902 Y101.204856 Z1.000000 I0.000000 J-5.025127
G02 X224.853380 Y91.539560 Z1.000000 I-17.725474 J-10.491201
G01 X225.177650 Y83.459170 Z1.000000
G01 X222.363140 Y83.459170 Z1.000000
G01 X219.548640 Y83.459170 Z1.000000
G01 X219.280050 Y90.816950 Z1.000000
G03 X218.378856 Y97.818615 Z1.000000 I-38.595717 J-1.408878
G03 X217.402150 Y99.233390 Z1.000000 I-2.235538 J-0.498802
G03 X215.792840 Y99.715276 Z1.000000 I-1.609310 J-2.446289
G03 X214.183530 Y99.233390 Z1.000000 I-0.000000 J-2.928175
G03 X213.206825 Y97.818615 Z1.000000 I1.258830 J-1.913574
G03 X212.305640 Y90.816950 Z1.000000 I37.694340 J-8.410469
G01 X212.037050 Y83.459170 Z1.000000
G01 X209.316910 Y83.459170 Z1.000000
G01 X206.596770 Y83.459170 Z1.000000
G01 X206.596770 Y93.564820 Z1.000000
G00 Z5.000000

(Change tool to Default tool)

G00 Z5.000000
G00 X136.739210 Y117.385280

G01 Z1.000000 F100.0(Penetrate)
G02 X137.056794 Y119.475728 Z1.000000 I7.811596 J-0.117401 F400.000000
G02 X138.086030 Y121.956880 Z1.000000 I12.096234 J-3.563733
G03 X139.199389 Y128.886662 Z1.000000 I-9.218976 J5.035477
G03 X133.376290 Y147.645720 Z1.000000 I-80.921467 J-14.835945
G02 X130.575235 Y154.848312 Z1.000000 I70.927568 J31.729365
G02 X128.708630 Y161.676930 Z1.000000 I61.865951 J20.580503
G02 X131.786902 Y189.494642 Z1.000000 I43.129927 J9.306472
G02 X148.343360 Y204.159380 Z1.000000 I25.012191 J-11.560238
G02 X150.147686 Y204.031043 Z1.000000 I0.742853 J-2.303954
G02 X153.732930 Y201.529830 Z1.000000 I-6.199368 J-12.706342
G02 X156.155696 Y198.095519 Z1.000000 I-7.619615 J-7.947062
G02 X156.109010 Y196.242260 Z1.000000 I-1.953839 J-0.877998
G02 X154.694341 Y194.736362 Z1.000000 I-3.311233 J1.693203
G02 X151.639060 Y193.592280 Z1.000000 I-4.728597 J7.976141
G03 X144.355290 Y188.717822 Z1.000000 I1.991665 J-10.855288
G03 X141.459420 Y177.805080 Z1.000000 I15.392804 J-9.925330
G03 X147.259638 Y162.535867 Z1.000000 I26.808736 J1.447410
G03 X157.562790 Y157.567270 Z1.000000 I10.303152 J8.198289
G02 X167.577523 Y155.679530 Z1.000000 I0.000000 J-27.508676
G02 X181.077770 Y148.375700 Z1.000000 I-22.718229 J-58.120601
G03 X193.662667 Y141.849501 Z1.000000 I29.311267 J41.125592
G03 X197.398180 Y142.647030 Z1.000000 I1.214305 J3.459437
G03 X198.075090 Y147.581783 Z1.000000 I-2.736453 J2.889168
G03 X186.570810 Y160.714120 Z1.000000 I-41.935449 J-25.131383
G02 X178.055577 Y172.822689 Z1.000000 I16.328630 J20.531361
G02 X179.998720 Y180.099130 Z1.000000 I6.431011 J2.180300
G02 X183.760886 Y181.360977 Z1.000000 I3.380030 J-3.838147
G02 X184.990540 Y179.725100 Z1.000000 I-0.101640 J-1.356492
G03 X185.897705 Y175.217464 Z1.000000 I5.704299 J-1.197108
G03 X193.238220 Y167.773770 Z1.000000 I24.798650 J17.113680
G02 X210.114388 Y147.116552 Z1.000000 I-29.206251 J-41.082611
G02 X208.247800 Y133.910140 Z1.000000 I-11.521378 J-5.106691
G02 X201.909866 Y129.072670 Z1.000000 I-13.943305 J11.697536
G02 X188.451820 Y124.804860 Z1.000000 I-23.847645 J51.847695
G03 X177.890693 Y121.206745 Z1.000000 I7.014968 J-37.888699
G03 X177.188650 Y119.031780 Z1.000000 I0.737496 J-1.438838
G02 X176.615237 Y116.763191 Z1.000000 I-1.579265 J-0.807585
G02 X171.651690 Y115.219780 Z1.000000 I-4.963547 J7.209578
G01 X165.214450 Y115.219780 Z1.000000
G01 X165.214450 Y118.050320 Z1.000000
G02 X165.563493 Y120.690909 Z1.000000 I10.162856 J0.000000
G02 X166.136530 Y121.477280 Z1.000000 I1.309658 J-0.352388
G03 X166.518940 Y122.218425 Z1.000000 I-0.455513 J0.704261
G03 X166.020970 Y124.102930 Z1.000000 I-4.577309 J-0.201483
G02 X165.328096 Y126.219304 Z1.000000 I6.368334 J3.256519
G02 X164.868960 Y131.237580 Z1.000000 I36.158727 J5.838402
G02 X165.538795 Y136.039029 Z1.000000 I15.117035 J0.338519
G02 X167.255720 Y138.963930 Z1.000000 I7.070991 J-2.184322
G02 X169.493711 Y139.713465 Z1.000000 I1.829061 J-1.745374
G02 X170.007670 Y138.512870 Z1.000000 I-0.125209 J-0.763907
G03 X167.914637 Y133.323189 Z1.000000 I10.778477 J-7.363939
G03 X168.113200 Y127.297710 Z1.000000 I14.940064 J-2.523678
G02 X169.178847 Y122.435202 Z1.000000 I-138.464788 J-32.893404
G02 X169.186180 Y121.956880 Z1.000000 I-1.289131 J-0.258979
G02 X169.082427 Y121.480809 Z1.000000 I-5.084461 J0.858745
G02 X168.477040 Y119.310160 Z1.000000 I-107.318884 J28.761149
G03 X168.652185 Y117.747847 Z1.000000 I1.967747 J-0.570377
G03 X169.675300 Y117.144680 Z1.000000 I1.023115 J0.566140
G03 X173.517173 Y118.040993 Z1.000000 I-0.000000 J8.681877
G03 X173.866180 Y119.212730 Z1.000000 I-0.368985 J0.747749
G02 X174.101973 Y122.186685 Z1.000000 I2.233939 J1.319205
G02 X179.205890 Y125.660530 Z1.000000 I8.557756 J-7.087045
G02 X182.268074 Y126.477701 Z1.000000 I8.912791 J-27.252853
G02 X188.897990 Y127.680630 Z1.000000 I26.442921 J-126.867760
G03 X200.226062 Y130.984222 Z1.000000 I-6.943688 J44.883887
G03 X205.620120 Y135.028890 Z1.000000 I-5.964895 J13.574066
G03 X207.455022 Y146.160691 Z1.000000 I-8.481149 J7.115112
G03 X194.670010 Y163.152000 Z1.000000 I-36.646516 J-14.268800
G02 X184.073899 Y172.985012 Z1.000000 I45.710259 J59.883362
G02 X182.687000 Y176.632820 Z1.000000 I4.103764 J3.647808
G03 X182.091034 Y178.632119 Z1.000000 I-3.651527 J-0.000000
G03 X181.307580 Y178.741010 Z1.000000 I-0.439240 J-0.287401
G03 X179.648301 Y174.678604 Z1.000000 I3.190491 J-3.673215
G03 X182.131940 Y168.468610 Z1.000000 I11.265981 J0.904089
G03 X184.540897 Y165.958721 Z1.000000 I16.100378 J13.041940
G03 X191.234880 Y160.454610 Z1.000000 I84.966653 J96.512031
G02 X200.333995 Y151.347942 Z1.000000 I-29.914115 J-38.988422
G02 X201.969500 Y146.439630 Z1.000000 I-6.301053 J-4.826222
G02 X200.619202 Y142.149922 Z1.000000 I-7.743422 J0.080070
G02 X197.127030 Y139.354920 Z1.000000 I-6.324403 J4.322807
G02 X191.859047 Y139.292629 Z1.000000 I-2.715041 J6.823265
G02 X180.227510 Y145.620720 Z1.000000 I16.127445 J43.497427
G03 X167.623209 Y152.906244 Z1.000000 I-37.197311 J-49.807328
G03 X159.237010 Y154.662460 Z1.000000 I-8.518265 J-19.775213
G02 X150.255094 Y156.460998 Z1.000000 I0.147631 J24.064427
G02 X144.547960 Y160.685300 Z1.000000 I5.485449 J13.378362
G02 X137.774675 Y179.651140 Z1.000000 I23.207268 J18.980424
G02 X144.531760 Y193.975150 Z1.000000 I18.541802 J0.009019
G02 X147.220597 Y195.646090 Z1.000000 I7.602711 J-9.235223
G02 X149.170120 Y196.065000 Z1.000000 I1.949523 J-4.326895
G03 X151.236264 Y196.239081 Z1.000000 I-0.000000 J12.348440
G03 X152.806640 Y196.682160 Z1.000000 I-1.279529 J7.539379
G03 X153.158183 Y197.486654 Z1.000000 I-0.233343 J0.581019
G03 X151.741070 Y199.470960 Z1.000000 I-4.511538 J-1.723786
G03 X149.027172 Y200.557467 Z1.000000 I-3.026224 J-3.626293
G03 X145.807920 Y199.864160 Z1.000000 I-0.396330 J-5.980385
G03 X138.110202 Y193.534585 Z1.000000 I11.945700 J-22.373356
G03 X132.812180 Y183.952650 Z1.000000 I23.710630 J-19.365680
G03 X130.998777 Y168.281809 Z1.000000 I35.839752 J-12.087658
G03 X136.239000 Y147.942530 Z1.000000 I66.745693 J6.351711
G02 X139.793469 Y138.674662 Z1.000000 I-105.391677 J-45.736007
G02 X141.220560 Y133.060450 Z1.000000 I-37.104250 J-12.420108
G02 X141.731828 Y122.891310 Z1.000000 I-40.341901 J-7.125670
G02 X140.280810 Y120.445790 Z1.000000 I-3.186403 J0.237380
G03 X139.700506 Y118.524839 Z1.000000 I0.842592 J-1.302669
G03 X141.534560 Y117.560410 Z1.000000 I1.517286 J0.659297
G02 X143.611685 Y117.896833 Z1.000000 I6.276425 J-32.171130
G02 X145.212990 Y118.035590 Z1.000000 I2.450326 J-18.968424
G03 X146.205650 Y118.696957 Z1.000000 I-0.051188 J1.152466
G03 X146.822300 Y121.456190 Z1.000000 I-5.864845 J2.759233
G02 X147.155622 Y124.743726 Z1.000000 I16.379041 J0.000000
G02 X148.300820 Y128.672550 Z1.000000 I24.610878 J-5.042413
G03 X149.382103 Y132.542579 Z1.000000 I-20.270724 J7.749691
G03 X149.260580 Y133.954650 Z1.000000 I-2.656352 J0.482659
G02 X149.882274 Y135.713100 Z1.000000 I1.373403 J0.503562
G02 X151.529480 Y135.313780 Z1.000000 I0.620778 J-1.036316
G02 X152.048526 Y133.916610 Z1.000000 I-3.191419 J-1.980605
G02 X152.116380 Y131.581320 Z1.000000 I-9.116779 J-1.433525
G03 X152.892499 Y130.092940 Z1.000000 I1.527592 J-0.149978
G03 X156.401540 Y129.175210 Z1.000000 I3.509041 J6.249736
G02 X160.576692 Y128.701538 Z1.000000 I0.000000 J-18.637654
G02 X161.280110 Y128.053830 Z1.000000 I-0.216210 J-0.940619
G02 X160.502606 Y126.608065 Z1.000000 I-1.088379 J-0.346637
G02 X153.908060 Y125.968730 Z1.000000 I-5.064097 J17.904594
G01 X150.040930 Y126.287890 Z1.000000
G01 X149.765130 Y120.753830 Z1.000000
G01 X149.489340 Y115.219780 Z1.000000
G01 X143.097980 Y115.219780 Z1.000000
G02 X137.626483 Y116.125888 Z1.000000 I0.000000 J16.972771
G02 X136.739210 Y117.385280 Z1.000000 I0.422173 J1.239680
G01 X136.739210 Y117.385280 Z1.000000
G00 Z5.000000

(End cutting path id: path3422)


(Start cutting path id: path3422)
(Change tool to Default tool)

G00 Z5.000000
G00 X230.957900 Y79.255420

G01 Z1.000000 F100.0(Penetrate)
G02 X232.475376 Y82.833582 Z1.000000 I84.898526 J-33.894065 F400.000000
G02 X232.747870 Y83.238360 Z1.000000 I1.314249 J-0.590636
G03 X232.832412 Y83.645652 Z1.000000 I-0.284004 J0.271371
G03 X229.040050 Y93.292050 Z1.000000 I-228.845343 J-84.399049
G02 X225.052850 Y102.999269 Z1.000000 I794.374788 J331.958644
G02 X224.988920 Y103.328450 Z1.000000 I0.815529 J0.329181
G02 X225.148955 Y103.510448 Z1.000000 I0.183505 J0.000000
G02 X227.640940 Y103.670470 Z1.000000 I2.491985 J-19.323552
G02 X229.652983 Y102.744801 Z1.000000 I-0.000000 J-2.649531
G02 X232.382350 Y98.136420 Z1.000000 I-11.766814 J-10.081474
G03 X234.596916 Y92.675259 Z1.000000 I113.742702 J42.944436
G03 X235.125390 Y91.816360 Z1.000000 I3.266015 J1.417520
G03 X235.622018 Y91.873065 Z1.000000 I0.229738 J0.191040
G03 X237.910890 Y97.350410 Z1.000000 I-37.643353 J18.947309
G02 X240.727885 Y102.716309 Z1.000000 I18.236781 J-6.151578
G02 X242.631520 Y103.670470 Z1.000000 I1.903635 J-1.421880
G02 X244.896134 Y103.346333 Z1.000000 I-0.000000 J-8.073048
G02 X245.220270 Y102.913910 Z1.000000 I-0.126375 J-0.432423
G02 X245.091757 Y102.181096 Z1.000000 I-2.153608 J-0.000000
G02 X240.257340 Y89.199090 Z1.000000 I-702.091474 J254.063290
G02 X234.496408 Y77.279788 Z1.000000 I-73.274481 J28.063748
G02 X232.402810 Y75.936310 Z1.000000 I-2.383774 J1.411725
G01 X229.511220 Y75.631760 Z1.000000
G01 X230.957900 Y79.255420 Z1.000000
G00 Z5.000000

(Change tool to Default tool)

G00 Z5.000000
G00 X162.455620 Y90.196270

G01 Z1.000000 F100.0(Penetrate)
G01 X162.455620 Y103.670470 Z1.000000 F400.000000
G01 X164.754650 Y103.670470 Z1.000000
G02 X166.658801 Y103.275619 Z1.000000 I0.000000 J-4.788765
G02 X167.053660 Y102.674160 Z1.000000 I-0.260649 J-0.601459
G03 X167.421802 Y102.306018 Z1.000000 I0.368142 J0.000000
G03 X168.832420 Y102.674160 Z1.000000 I0.000000 J2.886620
G02 X174.612354 Y103.693930 Z1.000000 I4.350215 J-7.766624
G02 X179.998900 Y100.857170 Z1.000000 I-1.538245 J-9.453344
G02 X182.468157 Y89.511702 Z1.000000 I-8.052363 J-7.693979
G02 X173.960990 Y83.459170 Z1.000000 I-8.507167 J2.952380
G02 X170.693245 Y83.773630 Z1.000000 I-0.000000 J17.135783
G02 X168.832420 Y84.455470 Z1.000000 I1.190844 J6.130092
G03 X167.813871 Y84.154632 Z1.000000 I-0.362532 J-0.647245
G03 X167.053660 Y81.086910 Z1.000000 I5.809570 J-3.067722
G02 X166.188378 Y77.587356 Z1.000000 I-7.509457 J0.000000
G02 X164.754650 Y76.722070 Z1.000000 I-1.433728 J0.755159
G01 X162.455620 Y76.722070 Z1.000000
G01 X162.455620 Y90.196270 Z1.000000
G00 Z5.000000

(Change tool to Default tool)

G00 Z5.000000
G00 X176.249740 Y89.233830

G01 Z1.000000 F100.0(Penetrate)
G03 X177.636165 Y91.340242 Z1.000000 I-5.077449 J4.851413 F400.000000
G03 X178.088950 Y93.564820 Z1.000000 I-5.238392 J2.224578
G03 X176.372929 Y98.104679 Z1.000000 I-6.863276 J-0.000000
G03 X172.571310 Y99.820690 Z1.000000 I-3.801619 J-3.353014
G03 X168.769680 Y98.104675 Z1.000000 I0.000000 J-5.069040
G03 X167.053660 Y93.564820 Z1.000000 I5.147248 J-4.539855
G03 X168.769685 Y89.024960 Z1.000000 I6.863265 J0.000000
G03 X172.571310 Y87.308950 Z1.000000 I3.801625 J3.353029
G03 X174.235580 Y87.718083 Z1.000000 I0.000000 J3.589522
G03 X176.249740 Y89.233830 Z1.000000 I-3.600574 J6.880632
G01 X176.249740 Y89.233830 Z1.000000
G00 Z5.000000

(Change tool to Default tool)

G00 Z5.000000
G00 X90.457039 Y85.399110

G01 Z1.000000 F100.0(Penetrate)
G02 X88.493997 Y87.604597 Z1.000000 I6.087864 J7.395006 F400.000000
G02 X87.041279 Y90.698270 Z1.000000 I10.787405 J6.953435
G02 X86.681892 Y94.011179 Z1.000000 I8.101804 J2.554838
G02 X87.664409 Y97.653330 Z1.000000 I10.843152 J-0.971481
G02 X91.505907 Y101.990052 Z1.000000 I9.259605 J-4.332446
G02 X97.269389 Y103.656290 Z1.000000 I5.810292 J-9.296679
G02 X103.658924 Y101.902503 Z1.000000 I0.052760 J-12.324101
G02 X105.439980 Y98.758200 Z1.000000 I-1.884971 J-3.144303
G02 X104.110119 Y97.351408 Z1.000000 I-1.409017 J0.000000
G02 X99.498759 Y98.423910 Z1.000000 I-0.473445 J8.414183
G03 X96.456994 Y99.252212 Z1.000000 I-3.160755 J-5.607931
G03 X94.031459 Y98.524980 Z1.000000 I-0.076769 J-4.152506
G03 X91.409076 Y93.564910 Z1.000000 I3.413707 J-4.978083
G03 X94.001959 Y88.625070 Z1.000000 I5.968087 J-0.017811
G03 X96.417252 Y87.865425 Z1.000000 I2.451458 J3.574878
G03 X99.503369 Y88.579170 Z1.000000 I0.056602 J6.784066
G02 X103.895885 Y89.566722 Z1.000000 I4.198702 J-8.412862
G02 X105.144600 Y88.863611 Z1.000000 I-0.031255 J-1.515913
G02 X105.156524 Y87.535745 Z1.000000 I-1.060617 J-0.673511
G02 X102.051960 Y84.565740 Z1.000000 I-7.140529 J4.356425
G02 X95.911257 Y83.219091 Z1.000000 I-5.346333 J9.705120
G02 X90.457099 Y85.399150 Z1.000000 I0.693445 J9.647631
G01 X90.457039 Y85.399110 Z1.000000
G00 Z5.000000

(Change tool to Default tool)

G00 Z5.000000
G00 X111.058830 Y84.802270

G01 Z1.000000 F100.0(Penetrate)
G02 X107.787891 Y88.247051 Z1.000000 I4.229539 J7.291420 F400.000000
G02 X106.392170 Y93.901670 Z1.000000 I11.275526 J5.782681
G02 X109.175835 Y100.817059 Z1.000000 I9.737076 J0.098467
G02 X115.969160 Y103.670470 Z1.000000 I6.793325 J-6.659978
G02 X122.308314 Y102.195789 Z1.000000 I-0.000000 J-14.362281
G02 X125.644080 Y98.911560 Z1.000000 I-3.279360 J-6.666990
G02 X126.290216 Y96.987480 Z1.000000 I-6.098496 J-3.118502
G02 X126.590940 Y93.564820 Z1.000000 I-19.326988 J-3.422660
G02 X126.290217 Y90.142154 Z1.000000 I-19.627819 J0.000000
G02 X125.644080 Y88.218070 Z1.000000 I-6.744631 J1.194417
G02 X119.646164 Y83.523782 Z1.000000 I-8.062927 J4.123117
G02 X111.058830 Y84.802270 Z1.000000 I-2.683145 J11.456780
G01 X111.058830 Y84.802270 Z1.000000
G00 Z5.000000

(Change tool to Default tool)

G00 Z5.000000
G00 X120.153680 Y89.233830

G01 Z1.000000 F100.0(Penetrate)
G03 X121.724512 Y95.031915 Z1.000000 I-4.545654 J4.343350 F400.000000
G03 X117.769260 Y99.259150 Z1.000000 I-5.680543 J-1.351052
G03 X113.198629 Y98.327072 Z1.000000 I-1.434521 J-4.638084
G03 X110.957620 Y93.494960 Z1.000000 I4.089049 J-4.832112
G03 X112.664832 Y89.016178 Z1.000000 I6.728534 J-0.000000
G03 X116.475270 Y87.308950 Z1.000000 I3.810438 J3.398731
G03 X118.139525 Y87.718076 Z1.000000 I-0.000000 J3.589513
G03 X120.153680 Y89.233830 Z1.000000 I-3.600408 J6.880369
G01 X120.153680 Y89.233830 Z1.000000
G00 Z5.000000

(Change tool to Default tool)

G00 Z5.000000
G00 X128.430160 Y93.564820

G01 Z1.000000 F100.0(Penetrate)
G01 X128.430160 Y103.670470 Z1.000000 F400.000000
G01 X131.188970 Y103.670470 Z1.000000
G02 X133.486331 Y103.208993 Z1.000000 I0.000000 J-5.949192
G02 X133.947800 Y102.515530 Z1.000000 I-0.290309 J-0.693463
G03 X134.278334 Y102.184996 Z1.000000 I0.330534 J0.000000
G03 X135.051330 Y102.515530 Z1.000000 I-0.000000 J1.069142
G02 X138.022109 Y103.791248 Z1.000000 I2.983406 J-2.850590
G02 X143.585350 Y102.541630 Z1.000000 I0.039273 J-12.833615
G03 X145.838922 Y102.031812 Z1.000000 I2.253572 J4.725878
G03 X147.031160 Y102.541630 Z1.000000 I0.000000 J1.648966
G02 X151.285801 Y104.185527 Z1.000000 I3.875794 J-3.703352
G02 X157.065920 Y101.830660 Z1.000000 I-0.709366 J-10.012374
G02 X158.445483 Y99.605212 Z1.000000 I-2.750137 J-3.245141
G02 X159.561180 Y91.725010 Z1.000000 I-38.155375 J-9.421209
G01 X159.885540 Y83.459140 Z1.000000
G01 X157.071030 Y83.459140 Z1.000000
G01 X154.256520 Y83.459140 Z1.000000
G01 X153.987940 Y90.816930 Z1.000000
G03 X153.086747 Y97.818599 Z1.000000 I-38.596559 J-1.408976
G03 X152.110050 Y99.233370 Z1.000000 I-2.235532 J-0.498795
G03 X150.500724 Y99.715249 Z1.000000 I-1.609326 J-2.446388
G03 X148.891420 Y99.233370 Z1.000000 I-0.000000 J-2.928190
G03 X147.914709 Y97.818591 Z1.000000 I1.258821 J-1.913574
G03 X147.013530 Y90.816930 Z1.000000 I37.694601 J-8.410474
G01 X146.744930 Y83.459170 Z1.000000
G01 X144.063480 Y83.459170 Z1.000000
G01 X141.382030 Y83.459170 Z1.000000
G01 X141.113430 Y90.816960 Z1.000000
G03 X140.212251 Y97.818613 Z1.000000 I-38.595674 J-1.408810
G03 X139.235540 Y99.233400 Z1.000000 I-2.235555 J-0.498801
G03 X137.626225 Y99.715282 Z1.000000 I-1.609315 J-2.446329
G03 X136.016910 Y99.233400 Z1.000000 I-0.000000 J-2.928211
G03 X135.040205 Y97.818617 Z1.000000 I1.258855 J-1.913588
G03 X134.139020 Y90.816960 Z1.000000 I37.694234 J-8.410457
G01 X133.870420 Y83.459170 Z1.000000
G01 X131.150300 Y83.459170 Z1.000000
G01 X128.430160 Y83.459170 Z1.000000
G01 X128.430160 Y93.564820 Z1.000000
G00 Z5.000000

(Change tool to Default tool)

G00 Z5.000000
G00 X187.974710 Y84.498710

G01 Z1.000000 F100.0(Penetrate)
G02 X184.902572 Y87.889200 Z1.000000 I4.203655 J6.896035 F400.000000
G02 X183.606580 Y93.564820 Z1.000000 I11.779807 J5.675620
G02 X184.966182 Y99.335780 Z1.000000 I12.927493 J0.000000
G02 X188.153690 Y102.679500 Z1.000000 I7.022724 J-3.503479
G02 X194.247253 Y104.216470 Z1.000000 I5.895437 J-10.525463
G02 X198.136380 Y102.515530 Z1.000000 I-0.090392 J-5.503308
G03 X198.909374 Y102.184994 Z1.000000 I0.772994 J0.738598
G03 X199.239910 Y102.515530 Z1.000000 I0.000000 J0.330536
G02 X201.254964 Y104.623379 Z1.000000 I2.109986 J0.000000
G02 X203.991210 Y102.729490 Z1.000000 I0.123625 J-2.744965
G02 X204.144745 Y101.766745 Z1.000000 I-2.968073 J-0.966952
G02 X204.005310 Y92.623850 Z1.000000 I-275.477914 J-0.371297
G02 X202.763266 Y84.439037 Z1.000000 I-34.952776 J1.117431
G02 X201.476390 Y83.459170 Z1.000000 I-1.286876 J0.355105
G02 X199.632662 Y83.851352 Z1.000000 I-0.000000 J4.529965
G02 X199.240470 Y84.455470 Z1.000000 I0.269185 J0.604118
G03 X198.872326 Y84.823614 Z1.000000 I-0.368144 J0.000000
G03 X197.461720 Y84.455470 Z1.000000 I0.000000 J-2.886564
G02 X192.582272 Y83.193898 Z1.000000 I-4.834357 J8.631061
G02 X187.975280 Y84.498670 Z1.000000 I0.040701 J8.929462
G01 X187.974710 Y84.498710 Z1.000000
G00 Z5.000000

(Change tool to Default tool)

G00 Z5.000000
G00 X197.196080 Y88.807170

G01 Z1.000000 F100.0(Penetrate)
G03 X199.506661 Y95.659932 Z1.000000 I-3.715681 J5.068751 F400.000000
G03 X193.935660 Y99.820690 Z1.000000 I-5.571001 J-1.649236
G03 X189.956002 Y98.069301 Z1.000000 I0.000000 J-5.397157
G03 X188.204630 Y93.564820 Z1.000000 I4.917015 J-4.504481
G03 X189.956010 Y89.060331 Z1.000000 I6.668385 J-0.000000
G03 X193.935660 Y87.308950 Z1.000000 I3.979650 J3.645774
G03 X195.070960 Y87.557309 Z1.000000 I-0.000000 J2.719022
G03 X197.196080 Y88.807170 Z1.000000 I-5.109076 J11.118472
G01 X197.196080 Y88.807170 Z1.000000
G00 Z5.000000

(Change tool to Default tool)

G00 Z5.000000
G00 X206.596770 Y93.564820

G01 Z1.000000 F100.0(Penetrate)
G01 X206.596770 Y103.670470 Z1.000000 F400.000000
G01 X209.355600 Y103.670470 Z1.000000
G02 X211.652939 Y103.208996 Z1.000000 I0.000000 J-5.949122
G02 X212.114410 Y102.515530 Z1.000000 I-0.290312 J-0.693466
G03 X212.444945 Y102.184995 Z1.000000 I0.330535 J0.000000
G03 X213.217950 Y102.515530 Z1.000000 I0.000000 J1.069161
G02 X214.494783 Y103.265187 Z1.000000 I1.955477 J-1.868419
G02 X217.673460 Y103.670470 Z1.000000 I3.178677 J-12.262709
G02 X221.997902 Y101.204856 Z1.000000 I0.000000 J-5.025127
G02 X224.853380 Y91.539560 Z1.000000 I-17.725474 J-10.491201
G01 X225.177650 Y83.459170 Z1.000000
G01 X222.363140 Y83.459170 Z1.000000
G01 X219.548640 Y83.459170 Z1.000000
G01 X219.280050 Y90.816950 Z1.000000
G03 X218.378856 Y97.818615 Z1.000000 I-38.595717 J-1.408878
G03 X217.402150 Y99.233390 Z1.000000 I-2.235538 J-0.498802
G03 X215.792840 Y99.715276 Z1.000000 I-1.609310 J-2.446289
G03 X214.183530 Y99.233390 Z1.000000 I-0.000000 J-2.928175
G03 X213.206825 Y97.818615 Z1.000000 I1.258830 J-1.913574
G03 X212.305640 Y90.816950 Z1.000000 I37.694340 J-8.410469
G01 X212.037050 Y83.459170 Z1.000000
G01 X209.316910 Y83.459170 Z1.000000
G01 X206.596770 Y83.459170 Z1.000000
G01 X206.596770 Y93.564820 Z1.000000
G00 Z5.000000

(Change tool to Default tool)

G00 Z5.000000
G00 X136.739210 Y117.385280

G01 Z1.000000 F100.0(Penetrate)
G02 X137.056794 Y119.475728 Z1.000000 I7.811596 J-0.117401 F400.000000
G02 X138.086030 Y121.956880 Z1.000000 I12.096234 J-3.563733
G03 X139.199389 Y128.886662 Z1.000000 I-9.218976 J5.035477
G03 X133.376290 Y147.645720 Z1.000000 I-80.921467 J-14.835945
G02 X130.575235 Y154.848312 Z1.000000 I70.927568 J31.729365
G02 X128.708630 Y161.676930 Z1.000000 I61.865951 J20.580503
G02 X131.786902 Y189.494642 Z1.000000 I43.129927 J9.306472
G02 X148.343360 Y204.159380 Z1.000000 I25.012191 J-11.560238
G02 X150.147686 Y204.031043 Z1.000000 I0.742853 J-2.303954
G02 X153.732930 Y201.529830 Z1.000000 I-6.199368 J-12.706342
G02 X156.155696 Y198.095519 Z1.000000 I-7.619615 J-7.947062
G02 X156.109010 Y196.242260 Z1.000000 I-1.953839 J-0.877998
G02 X154.694341 Y194.736362 Z1.000000 I-3.311233 J1.693203
G02 X151.639060 Y193.592280 Z1.000000 I-4.728597 J7.976141
G03 X144.355290 Y188.717822 Z1.000000 I1.991665 J-10.855288
G03 X141.459420 Y177.805080 Z1.000000 I15.392804 J-9.925330
G03 X147.259638 Y162.535867 Z1.000000 I26.808736 J1.447410
G03 X157.562790 Y157.567270 Z1.000000 I10.303152 J8.198289
G02 X167.577523 Y155.679530 Z1.000000 I0.000000 J-27.508676
G02 X181.077770 Y148.375700 Z1.000000 I-22.718229 J-58.120601
G03 X193.662667 Y141.849501 Z1.000000 I29.311267 J41.125592
G03 X197.398180 Y142.647030 Z1.000000 I1.214305 J3.459437
G03 X198.075090 Y147.581783 Z1.000000 I-2.736453 J2.889168
G03 X186.570810 Y160.714120 Z1.000000 I-41.935449 J-25.131383
G02 X178.055577 Y172.822689 Z1.000000 I16.328630 J20.531361
G02 X179.998720 Y180.099130 Z1.000000 I6.431011 J2.180300
G02 X183.760886 Y181.360977 Z1.000000 I3.380030 J-3.838147
G02 X184.990540 Y179.725100 Z1.000000 I-0.101640 J-1.356492
G03 X185.897705 Y175.217464 Z1.000000 I5.704299 J-1.197108
G03 X193.238220 Y167.773770 Z1.000000 I24.798650 J17.113680
G02 X210.114388 Y147.116552 Z1.000000 I-29.206251 J-41.082611
G02 X208.247800 Y133.910140 Z1.000000 I-11.521378 J-5.106691
G02 X201.909866 Y129.072670 Z1.000000 I-13.943305 J11.697536
G02 X188.451820 Y124.804860 Z1.000000 I-23.847645 J51.847695
G03 X177.890693 Y121.206745 Z1.000000 I7.014968 J-37.888699
G03 X177.188650 Y119.031780 Z1.000000 I0.737496 J-1.438838
G02 X176.615237 Y116.763191 Z1.000000 I-1.579265 J-0.807585
G02 X171.651690 Y115.219780 Z1.000000 I-4.963547 J7.209578
G01 X165.214450 Y115.219780 Z1.000000
G01 X165.214450 Y118.050320 Z1.000000
G02 X165.563493 Y120.690909 Z1.000000 I10.162856 J0.000000
G02 X166.136530 Y121.477280 Z1.000000 I1.309658 J-0.352388
G03 X166.518940 Y122.218425 Z1.000000 I-0.455513 J0.704261
G03 X166.020970 Y124.102930 Z1.000000 I-4.577309 J-0.201483
G02 X165.328096 Y126.219304 Z1.000000 I6.368334 J3.256519
G02 X164.868960 Y131.237580 Z1.000000 I36.158727 J5.838402
G02 X165.538795 Y136.039029 Z1.000000 I15.117035 J0.338519
G02 X167.255720 Y138.963930 Z1.000000 I7.070991 J-2.184322
G02 X169.493711 Y139.713465 Z1.000000 I1.829061 J-1.745374
G02 X170.007670 Y138.512870 Z1.000000 I-0.125209 J-0.763907
G03 X167.914637 Y133.323189 Z1.000000 I10.778477 J-7.363939
G03 X168.113200 Y127.297710 Z1.000000 I14.940064 J-2.523678
G02 X169.178847 Y122.435202 Z1.000000 I-138.464788 J-32.893404
G02 X169.186180 Y121.956880 Z1.000000 I-1.289131 J-0.258979
G02 X169.082427 Y121.480809 Z1.000000 I-5.084461 J0.858745
G02 X168.477040 Y119.310160 Z1.000000 I-107.318884 J28.761149
G03 X168.652185 Y117.747847 Z1.000000 I1.967747 J-0.570377
G03 X169.675300 Y117.144680 Z1.000000 I1.023115 J0.566140
G03 X173.517173 Y118.040993 Z1.000000 I-0.000000 J8.681877
G03 X173.866180 Y119.212730 Z1.000000 I-0.368985 J0.747749
G02 X174.101973 Y122.186685 Z1.000000 I2.233939 J1.319205
G02 X179.205890 Y125.660530 Z1.000000 I8.557756 J-7.087045
G02 X182.268074 Y126.477701 Z1.000000 I8.912791 J-27.252853
G02 X188.897990 Y127.680630 Z1.000000 I26.442921 J-126.867760
G03 X200.226062 Y130.984222 Z1.000000 I-6.943688 J44.883887
G03 X205.620120 Y135.028890 Z1.000000 I-5.964895 J13.574066
G03 X207.455022 Y146.160691 Z1.000000 I-8.481149 J7.115112
G03 X194.670010 Y163.152000 Z1.000000 I-36.646516 J-14.268800
G02 X184.073899 Y172.985012 Z1.000000 I45.710259 J59.883362
G02 X182.687000 Y176.632820 Z1.000000 I4.103764 J3.647808
G03 X182.091034 Y178.632119 Z1.000000 I-3.651527 J-0.000000
G03 X181.307580 Y178.741010 Z1.000000 I-0.439240 J-0.287401
G03 X179.648301 Y174.678604 Z1.000000 I3.190491 J-3.673215
G03 X182.131940 Y168.468610 Z1.000000 I11.265981 J0.904089
G03 X184.540897 Y165.958721 Z1.000000 I16.100378 J13.041940
G03 X191.234880 Y160.454610 Z1.000000 I84.966653 J96.512031
G02 X200.333995 Y151.347942 Z1.000000 I-29.914115 J-38.988422
G02 X201.969500 Y146.439630 Z1.000000 I-6.301053 J-4.826222
G02 X200.619202 Y142.149922 Z1.000000 I-7.743422 J0.080070
G02 X197.127030 Y139.354920 Z1.000000 I-6.324403 J4.322807
G02 X191.859047 Y139.292629 Z1.000000 I-2.715041 J6.823265
G02 X180.227510 Y145.620720 Z1.000000 I16.127445 J43.497427
G03 X167.623209 Y152.906244 Z1.000000 I-37.197311 J-49.807328
G03 X159.237010 Y154.662460 Z1.000000 I-8.518265 J-19.775213
G02 X150.255094 Y156.460998 Z1.000000 I0.147631 J24.064427
G02 X144.547960 Y160.685300 Z1.000000 I5.485449 J13.378362
G02 X137.774675 Y179.651140 Z1.000000 I23.207268 J18.980424
G02 X144.531760 Y193.975150 Z1.000000 I18.541802 J0.009019
G02 X147.220597 Y195.646090 Z1.000000 I7.602711 J-9.235223
G02 X149.170120 Y196.065000 Z1.000000 I1.949523 J-4.326895
G03 X151.236264 Y196.239081 Z1.000000 I-0.000000 J12.348440
G03 X152.806640 Y196.682160 Z1.000000 I-1.279529 J7.539379
G03 X153.158183 Y197.486654 Z1.000000 I-0.233343 J0.581019
G03 X151.741070 Y199.470960 Z1.000000 I-4.511538 J-1.723786
G03 X149.027172 Y200.557467 Z1.000000 I-3.026224 J-3.626293
G03 X145.807920 Y199.864160 Z1.000000 I-0.396330 J-5.980385
G03 X138.110202 Y193.534585 Z1.000000 I11.945700 J-22.373356
G03 X132.812180 Y183.952650 Z1.000000 I23.710630 J-19.365680
G03 X130.998777 Y168.281809 Z1.000000 I35.839752 J-12.087658
G03 X136.239000 Y147.942530 Z1.000000 I66.745693 J6.351711
G02 X139.793469 Y138.674662 Z1.000000 I-105.391677 J-45.736007
G02 X141.220560 Y133.060450 Z1.000000 I-37.104250 J-12.420108
G02 X141.731828 Y122.891310 Z1.000000 I-40.341901 J-7.125670
G02 X140.280810 Y120.445790 Z1.000000 I-3.186403 J0.237380
G03 X139.700506 Y118.524839 Z1.000000 I0.842592 J-1.302669
G03 X141.534560 Y117.560410 Z1.000000 I1.517286 J0.659297
G02 X143.611685 Y117.896833 Z1.000000 I6.276425 J-32.171130
G02 X145.212990 Y118.035590 Z1.000000 I2.450326 J-18.968424
G03 X146.205650 Y118.696957 Z1.000000 I-0.051188 J1.152466
G03 X146.822300 Y121.456190 Z1.000000 I-5.864845 J2.759233
G02 X147.155622 Y124.743726 Z1.000000 I16.379041 J0.000000
G02 X148.300820 Y128.672550 Z1.000000 I24.610878 J-5.042413
G03 X149.382103 Y132.542579 Z1.000000 I-20.270724 J7.749691
G03 X149.260580 Y133.954650 Z1.000000 I-2.656352 J0.482659
G02 X149.882274 Y135.713100 Z1.000000 I1.373403 J0.503562
G02 X151.529480 Y135.313780 Z1.000000 I0.620778 J-1.036316
G02 X152.048526 Y133.916610 Z1.000000 I-3.191419 J-1.980605
G02 X152.116380 Y131.581320 Z1.000000 I-9.116779 J-1.433525
G03 X152.892499 Y130.092940 Z1.000000 I1.527592 J-0.149978
G03 X156.401540 Y129.175210 Z1.000000 I3.509041 J6.249736
G02 X160.576692 Y128.701538 Z1.000000 I0.000000 J-18.637654
G02 X161.280110 Y128.053830 Z1.000000 I-0.216210 J-0.940619
G02 X160.502606 Y126.608065 Z1.000000 I-1.088379 J-0.346637
G02 X153.908060 Y125.968730 Z1.000000 I-5.064097 J17.904594
G01 X150.040930 Y126.287890 Z1.000000
G01 X149.765130 Y120.753830 Z1.000000
G01 X149.489340 Y115.219780 Z1.000000
G01 X143.097980 Y115.219780 Z1.000000
G02 X137.626483 Y116.125888 Z1.000000 I0.000000 J16.972771
G02 X136.739210 Y117.385280 Z1.000000 I0.422173 J1.239680
G01 X136.739210 Y117.385280 Z1.000000
G00 Z5.000000

(End cutting path id: path3422)


(Footer)
M5
G00 X0.0000 Y0.0000
M2
(Using default footer. To add your own footer create file "footer" in the output dir.)
(end)
%